!!!!SEGMENT: pl-cz--iii-273--003_gotschalk-filip--vesperae-in-d-laetatus.krn
!!!cenid: 18xx:146
!!!COM: Gotschalk, Filip
!!!COM-rismid: pe30020320
!!!CDT: 1760-1809
!!!CNT:
!!!OTL: Vesperae in D - Laetatus
!!!PDT:
!!!AGN: Sacred; Vespers
!!!SMS-siglum: PL-CZ
!!!SMS-shelfmark: III-273
!!!SMS-shelfwork: 001-003 M
!!!NIFC-rismid:
!!!URL-scan: http://repozytorium.nifc.pl/skany/pl-cz-nut--iii-273
!!!ONB-nifc:
**kern	**fba	**dynam	**kern	**dynam	**kern	**dynam	**kern	**text	**kern	**text	**kern	**text	**kern	**text	**kern	**kern
*part9	*	*part9	*part8	*part8	*part7	*part7	*part6	*part6	*part5	*part5	*part4	*part4	*part3	*part3	*part2	*part1
*	*	*	*group3	*	*group3	*	*group2	*	*group2	*	*group2	*	*group2	*	*group1	*group1
*staff9	*	*	*staff8	*	*staff7	*	*staff6	*staff6	*staff5	*staff5	*staff4	*staff4	*staff3	*staff3	*staff2	*staff1
*I"Organo.	*	*	*I"Violino Secondo.	*	*I"Violino Primo	*	*I"Basſo.	*	*I"Tenore.	*	*I"Alto.	*	*I"Canto.	*	*I"Clarino Secondo in D.	*I"Clarino Primo in D.
*I'Org	*	*	*I'Vn II	*	*I'Vn I	*	*I'B	*	*I'T	*	*I'A	*	*I'C	*	*I'clno II	*I'clno I
*clefF4	*	*	*clefG2	*	*clefG2	*	*clefF4	*	*clefC4	*	*clefC3	*	*clefC1	*	*clefG2	*clefG2
*	*	*	*	*	*	*	*	*	*	*	*	*	*	*	*ITrd-1c-2	*ITrd-1c-2
*k[f#]	*	*	*k[f#]	*	*k[f#]	*	*k[f#]	*	*k[f#]	*	*k[f#]	*	*k[f#]	*	*k[f#]	*k[f#]
*G:	*	*	*G:	*	*G:	*	*G:	*	*G:	*	*G:	*	*G:	*	*G:	*G:
*M3/4	*	*	*M3/4	*	*M3/4	*	*M3/4	*	*M3/4	*	*M3/4	*	*M3/4	*	*M3/4	*M3/4
=1	=1	=1	=1	=1	=1	=1	=1	=1	=1	=1	=1	=1	=1	=1	=1	=1
*	*	*	*	*	*4\right	*	*	*	*	*	*	*	*	*	*	*
!	!	!	!	!	!	!	!LO:TX:a:t=17.	!	!LO:TX:a:t=41	!	!LO:TX:a:t=41.	!	!LO:TX:a:t=41	!	!	!
!	!	!LO:DY:a:rj:t=piano	!LO:TX:a:B:t=Moderato	!	!LO:TX:a:B:t=Moderato.	!LO:DY:b:t=Forte.	!LO:N:vis=00	!	!	!	!LO:TX:a:B:t=Moderato.	!	!LO:TX:a:B:t=Moderato	!	!LO:TX:a:B:t=Laetatus sum Tacet	!LO:TX:a:B:t=Laetalus sum Tacet.
4GG/	.	p	4b/ 4d/ 4G/	.	4gg\ 4b\	f	0.r	.	2.r	.	2.r	.	2.r	.	2.ryy	2.ryy
!	!	!	!	!LO:DY:b	!	!	!	!	!	!	!	!	!	!	!	!
*	*	*	*	*	*8\right	*	*	*	*	*	*	*	*	*	*	*
4BB/	.	.	(8b\L	f	8gg\L	.	.	.	.	.	.	.	.	.	.	.
.	.	.	8a/	.	8ff#\	.	.	.	.	.	.	.	.	.	.	.
4D/	.	.	8b\)	.	8gg\	.	.	.	.	.	.	.	.	.	.	.
.	.	.	8cc\J	.	8aa\J	.	.	.	.	.	.	.	.	.	.	.
=2	=2	=2	=2	=2	=2	=2	=2	=2	=2	=2	=2	=2	=2	=2	=2	=2
*tremolo	*	*	*	*	*	*	*	*	*	*	*	*	*	*	*	*
*2\right	*	*	*2\right	*	*	*	*	*	*	*	*	*	*	*	*	*
8G\L	.	.	2dd\	.	4gg\	.	.	.	2.r	.	2.r	.	2.r	.	2.ryy	2.ryy
8G\	.	.	.	.	.	.	.	.	.	.	.	.	.	.	.	.
8G\	.	.	.	.	4bb\	.	.	.	.	.	.	.	.	.	.	.
8G\	.	.	.	.	.	.	.	.	.	.	.	.	.	.	.	.
*	*	*	*4\right	*	*	*	*	*	*	*	*	*	*	*	*	*
8G\	.	.	4b\	.	4gg\	.	.	.	.	.	.	.	.	.	.	.
8G\J	.	.	.	.	.	.	.	.	.	.	.	.	.	.	.	.
=3	=3	=3	=3	=3	=3	=3	=3	=3	=3	=3	=3	=3	=3	=3	=3	=3
!	!	!	!	!	!LO:TX:a:t=P:problem:niejednoznaczny zapis przednutki	!	!	!	!	!	!	!	!	!	!	!
.	.	.	.	.	8qbb/	.	.	.	.	.	.	.	.	.	.	.
8D\L	.	.	4cc/ 4d/	.	4aa\	.	.	.	2.r	.	2.r	.	2.r	.	2.ryy	2.ryy
8D\	.	.	.	.	.	.	.	.	.	.	.	.	.	.	.	.
8D\	.	.	4b/ 4d/	.	4gg\	.	.	.	.	.	.	.	.	.	.	.
8D\	.	.	.	.	.	.	.	.	.	.	.	.	.	.	.	.
8D\	.	.	4a/ 4d/	.	4ff#\	.	.	.	.	.	.	.	.	.	.	.
8D\J	.	.	.	.	.	.	.	.	.	.	.	.	.	.	.	.
=4	=4	=4	=4	=4	=4	=4	=4	=4	=4	=4	=4	=4	=4	=4	=4	=4
!LO:TX:a:t=P:problem:mixed beam	!	!	!	!	!	!	!	!	!	!	!	!	!	!	!	!
8GG/L	.	.	(8b/L 8d/	.	4gg\	.	.	.	2.r	.	2.r	.	2.r	.	2.ryy	2.ryy
*8\right	*	*	*	*	*	*	*	*	*	*	*	*	*	*	*	*
8G\	.	.	8dd\)	.	.	.	.	.	.	.	.	.	.	.	.	.
8D\	.	.	(8b/ 8d/	.	4r	.	.	.	.	.	.	.	.	.	.	.
8G\J	.	.	8dd\)	.	.	.	.	.	.	.	.	.	.	.	.	.
8BB/L	.	.	(8b/ 8d/	.	8gg\L	.	.	.	.	.	.	.	.	.	.	.
8D\J	.	.	8dd\J)	.	8aa\J	.	.	.	.	.	.	.	.	.	.	.
=5	=5	=5	=5	=5	=5	=5	=5	=5	=5	=5	=5	=5	=5	=5	=5	=5
!	!	!	!	!	!LO:LB:g=original	!	!	!	!	!	!	!	!	!	!	!
!	!	!	!	!	!	!	!LO:N:vis=00	!	!	!	!	!	!	!	!	!
4GG/	.	.	4gg\	.	4bb\	.	0.r	.	2.r	.	2.r	.	2.r	.	2.ryy	2.ryy
*4\right	*	*	*8\right	*	*	*	*	*	*	*	*	*	*	*	*	*
4G\	.	.	8gg\L	.	8bb\L	.	.	.	.	.	.	.	.	.	.	.
.	.	.	8ff#\	.	8aa\	.	.	.	.	.	.	.	.	.	.	.
4GG/	.	.	8gg\	.	8bb\	.	.	.	.	.	.	.	.	.	.	.
.	.	.	8aa\J	.	8ccc\J	.	.	.	.	.	.	.	.	.	.	.
=6	=6	=6	=6	=6	=6	=6	=6	=6	=6	=6	=6	=6	=6	=6	=6	=6
8G\L	.	.	2bb\	.	4bb\	.	.	.	2.r	.	2.r	.	2.r	.	2.ryy	2.ryy
8G\	.	.	.	.	.	.	.	.	.	.	.	.	.	.	.	.
8G\	.	.	.	.	4ddd\	.	.	.	.	.	.	.	.	.	.	.
8G\	.	.	.	.	.	.	.	.	.	.	.	.	.	.	.	.
8G\	.	.	4gg\	.	4bb\	.	.	.	.	.	.	.	.	.	.	.
8G\J	.	.	.	.	.	.	.	.	.	.	.	.	.	.	.	.
=7	=7	=7	=7	=7	=7	=7	=7	=7	=7	=7	=7	=7	=7	=7	=7	=7
!	!	!	!LO:LB:g=original	!	!	!	!	!	!	!	!	!	!	!	!	!
!	!	!	!	!	!LO:TX:a:t=P:problem:niejednoznaczny zapis przednutki	!	!	!	!	!	!	!	!	!	!	!
.	.	.	.	.	8qddd/	.	.	.	.	.	.	.	.	.	.	.
8d\L	.	.	4aa\	.	4ccc\	.	.	.	2.r	.	2.r	.	2.r	.	2.ryy	2.ryy
8d\	.	.	.	.	.	.	.	.	.	.	.	.	.	.	.	.
8d\	.	.	4gg\	.	4bb\	.	.	.	.	.	.	.	.	.	.	.
8d\	.	.	.	.	.	.	.	.	.	.	.	.	.	.	.	.
8d\	.	.	4ff#\	.	4aa\	.	.	.	.	.	.	.	.	.	.	.
8d\J	.	.	.	.	.	.	.	.	.	.	.	.	.	.	.	.
=8	=8	=8	=8	=8	=8	=8	=8	=8	=8	=8	=8	=8	=8	=8	=8	=8
8r	.	.	8gg\L	.	4bb\	.	.	.	2.r	.	2.r	.	2.r	.	2.ryy	2.ryy
8G\L	.	.	8dd\	.	.	.	.	.	.	.	.	.	.	.	.	.
8D\	.	.	8b\	.	4r	.	.	.	.	.	.	.	.	.	.	.
8BB\J	.	.	8dd\	.	.	.	.	.	.	.	.	.	.	.	.	.
4GG/	.	.	8gg\	.	8bb\L	.	.	.	.	.	.	.	.	.	.	.
.	.	.	8aa\J	.	8ccc\J	.	.	.	.	.	.	.	.	.	.	.
=9	=9	=9	=9	=9	=9	=9	=9	=9	=9	=9	=9	=9	=9	=9	=9	=9
!LO:LB:g=original	!	!	!	!	!	!	!LO:N:vis=00	!	!	!	!	!	!	!	!	!
8G\L	.	.	4bb\	.	4ddd\	.	0.r	.	2.r	.	2.r	.	2.r	.	2.ryy	2.ryy
8G\	.	.	.	.	.	.	.	.	.	.	.	.	.	.	.	.
8G\	.	.	8gg\L	.	8bb\L	.	.	.	.	.	.	.	.	.	.	.
8G\	.	.	8aa\	.	8ccc\	.	.	.	.	.	.	.	.	.	.	.
8G\	.	.	8bb\	.	8ddd\	.	.	.	.	.	.	.	.	.	.	.
8G\J	.	.	8gg\J	.	8bb\J	.	.	.	.	.	.	.	.	.	.	.
=10	=10	=10	=10	=10	=10	=10	=10	=10	=10	=10	=10	=10	=10	=10	=10	=10
8D\L	5 3	.	(4ff#\	.	(4aa\	.	.	.	2.r	.	2.r	.	2.r	.	2.ryy	2.ryy
8D\	.	.	.	.	.	.	.	.	.	.	.	.	.	.	.	.
8D\	6 4	.	4gg\)	.	4bb\	.	.	.	.	.	.	.	.	.	.	.
8D\	.	.	.	.	.	.	.	.	.	.	.	.	.	.	.	.
8D\	7 5	.	4aa\	.	4ccc\	.	.	.	.	.	.	.	.	.	.	.
8D\J	.	.	.	.	.	.	.	.	.	.	.	.	.	.	.	.
=11	=11	=11	=11	=11	=11	=11	=11	=11	=11	=11	=11	=11	=11	=11	=11	=11
8G\L	.	.	4gg\	.	4bb\)	.	.	.	2.r	.	2.r	.	2.r	.	2.ryy	2.ryy
8G\	.	.	.	.	.	.	.	.	.	.	.	.	.	.	.	.
8G\	.	.	8gg\L	.	8bb\L	.	.	.	.	.	.	.	.	.	.	.
8G\	.	.	8aa\	.	8ccc\	.	.	.	.	.	.	.	.	.	.	.
8G\	.	.	8bb\	.	8ddd\	.	.	.	.	.	.	.	.	.	.	.
8G\J	.	.	8gg\J	.	8bb\J	.	.	.	.	.	.	.	.	.	.	.
*Xtremolo	*	*	*	*	*	*	*	*	*	*	*	*	*	*	*	*
=12	=12	=12	=12	=12	=12	=12	=12	=12	=12	=12	=12	=12	=12	=12	=12	=12
8d\L	5 3	.	(4ff#\	.	4aa\	.	.	.	2.r	.	2.r	.	2.r	.	2.ryy	2.ryy
8d\	.	.	.	.	.	.	.	.	.	.	.	.	.	.	.	.
8d\	6 4	.	4gg\	.	4bb\	.	.	.	.	.	.	.	.	.	.	.
8d\J	.	.	.	.	.	.	.	.	.	.	.	.	.	.	.	.
8D/L	7 5	.	4aa\)	.	4ccc\	.	.	.	.	.	.	.	.	.	.	.
8D/J	.	.	.	.	.	.	.	.	.	.	.	.	.	.	.	.
=13	=13	=13	=13	=13	=13	=13	=13	=13	=13	=13	=13	=13	=13	=13	=13	=13
!	!	!	!	!	!LO:PB:g=original	!	!	!	!	!	!	!	!	!	!	!
!	!	!	!	!	!	!	!LO:N:vis=00	!	!	!	!	!	!	!	!	!
4GG/	.	.	4gg\	.	4bb\	.	0.r	.	2.r	.	2.r	.	2.r	.	2.ryy	2.ryy
*	*	*	*	*	*Xtuplet	*	*	*	*	*	*	*	*	*	*	*
*	*	*	*12\right	*	*12\right	*	*	*	*	*	*	*	*	*	*	*
4D/	.	.	12ff#\L	.	12aa\L	.	.	.	.	.	.	.	.	.	.	.
.	.	.	12gg\	.	12bb\	.	.	.	.	.	.	.	.	.	.	.
.	.	.	12ff#\J	.	12aa\J	.	.	.	.	.	.	.	.	.	.	.
4C#X/	6 5	.	12ee\L	.	12gg\L	.	.	.	.	.	.	.	.	.	.	.
.	.	.	12ff#\	.	12aa\	.	.	.	.	.	.	.	.	.	.	.
.	.	.	12ee\J	.	12gg\J	.	.	.	.	.	.	.	.	.	.	.
=14	=14	=14	=14	=14	=14	=14	=14	=14	=14	=14	=14	=14	=14	=14	=14	=14
4D\	.	.	12dd\L	.	12ff#\L	.	.	.	2.r	.	2.r	.	2.r	.	2.ryy	2.ryy
.	.	.	12ee\	.	12gg\	.	.	.	.	.	.	.	.	.	.	.
.	.	.	12dd\J	.	12ff#\J	.	.	.	.	.	.	.	.	.	.	.
4F#\	7 5	.	12cc\L	.	12ee\L	.	.	.	.	.	.	.	.	.	.	.
.	.	.	12dd\	.	12ff#\	.	.	.	.	.	.	.	.	.	.	.
.	.	.	12cc\J	.	12ee\J	.	.	.	.	.	.	.	.	.	.	.
*Xtuplet	*	*	*	*	*	*	*	*	*	*	*	*	*	*	*	*
*12\right	*	*	*	*	*	*	*	*	*	*	*	*	*	*	*	*
12G\L	5 3	.	4b/ 4d/	.	4dd\	.	.	.	.	.	.	.	.	.	.	.
12A\	.	.	.	.	.	.	.	.	.	.	.	.	.	.	.	.
12B\J	.	.	.	.	.	.	.	.	.	.	.	.	.	.	.	.
=15	=15	=15	=15	=15	=15	=15	=15	=15	=15	=15	=15	=15	=15	=15	=15	=15
!	!	!	!LO:PB:g=original	!	!	!	!	!	!	!	!	!	!	!	!	!
4c\	.	.	4g/	.	4ee\	.	.	.	2.r	.	2.r	.	2.r	.	2.ryy	2.ryy
4C/	.	.	4g/	.	12ee\L	.	.	.	.	.	.	.	.	.	.	.
.	.	.	.	.	12ff#\	.	.	.	.	.	.	.	.	.	.	.
.	.	.	.	.	12gg\J	.	.	.	.	.	.	.	.	.	.	.
!	!	!	!LO:TUP:b	!	!	!	!	!	!	!	!	!	!	!	!	!
4D/	.	.	12a/L	.	12ff#\L	.	.	.	.	.	.	.	.	.	.	.
.	.	.	12b\	.	12gg\	.	.	.	.	.	.	.	.	.	.	.
.	.	.	12cc\J	.	12aa\J	.	.	.	.	.	.	.	.	.	.	.
=16	=16	=16	=16	=16	=16	=16	=16	=16	=16	=16	=16	=16	=16	=16	=16	=16
8G\L	.	.	8b\L	.	4gg\	.	.	.	2.r	.	2.r	.	2.r	.	2.ryy	2.ryy
8B\	.	.	8dd\	.	.	.	.	.	.	.	.	.	.	.	.	.
8d\	.	.	8gg\	.	4gg\	.	.	.	.	.	.	.	.	.	.	.
8B\	.	.	8dd\	.	.	.	.	.	.	.	.	.	.	.	.	.
8d\	.	.	8b\	.	4gg\	.	.	.	.	.	.	.	.	.	.	.
8B\J	.	.	8dd\J	.	.	.	.	.	.	.	.	.	.	.	.	.
=17	=17	=17	=17	=17	=17	=17	=17	=17	=17	=17	=17	=17	=17	=17	=17	=17
!LO:LB:g=original	!	!	!	!	!	!	!	!	!	!	!	!	!	!	!	!
*	*	*	*	*	*2\right	*	*	*	*	*	*	*	*	*	*	*
8G\L	.	.	2.b/ 2.d/	.	2.gg\ 2.b\	.	2.r	.	2.r	.	2.r	.	2.r	.	2.ryy	2.ryy
8G\	.	.	.	.	.	.	.	.	.	.	.	.	.	.	.	.
8D\	.	.	.	.	.	.	.	.	.	.	.	.	.	.	.	.
8BB\J	.	.	.	.	.	.	.	.	.	.	.	.	.	.	.	.
4GG/	.	.	.	.	.	.	.	.	.	.	.	.	.	.	.	.
=18	=18	=18	=18	=18	=18	=18	=18	=18	=18	=18	=18	=18	=18	=18	=18	=18
*	*	*	*	*	*	*	*4\right	*	*	*	*	*	*	*	*	*
!	!	!	!	!	!	!	!LO:TX:a:i:t=Solo	!	!	!	!	!	!	!	!	!
!	!	!LO:DY:b:t=p.	!	!LO:DY:b	!	!LO:DY:b	!LO:TX:b:t=P:problem:"L"przed kluczem	!	!	!	!	!	!	!	!	!
4GG/	.	p	4b/	p	4gg\	p	4G\	[L]ae-	2.r	.	2.r	.	2.r	.	2.ryy	2.ryy
*	*	*	*	*	*	*	*8\right	*	*	*	*	*	*	*	*	*
4BB/	.	.	(8b\L	.	8gg\L	.	8G\L	-ta-	.	.	.	.	.	.	.	.
.	.	.	8a/	.	8ff#\	.	8F#\J	.	.	.	.	.	.	.	.	.
4D/	.	.	8b\)	.	8gg\	.	8G\L	-tus	.	.	.	.	.	.	.	.
.	.	.	8cc\J	.	8aa\J	.	8A\J	.	.	.	.	.	.	.	.	.
=19	=19	=19	=19	=19	=19	=19	=19	=19	=19	=19	=19	=19	=19	=19	=19	=19
*tremolo	*	*	*	*	*	*	*	*	*	*	*	*	*	*	*	*
8G\L	.	.	4b\	.	4gg\	.	4G\	ſum	2.r	.	2.r	.	2.r	.	2.ryy	2.ryy
8G\	.	.	.	.	.	.	.	.	.	.	.	.	.	.	.	.
8G\	.	.	4dd\	.	4bb\	.	8r	.	.	.	.	.	.	.	.	.
8G\	.	.	.	.	.	.	8G\	in	.	.	.	.	.	.	.	.
8G\	.	.	4b\	.	4gg\	.	8d\	his	.	.	.	.	.	.	.	.
8G\J	.	.	.	.	.	.	8B\	quae	.	.	.	.	.	.	.	.
=20	=20	=20	=20	=20	=20	=20	=20	=20	=20	=20	=20	=20	=20	=20	=20	=20
8D\L	.	.	4cc\	.	4aa\	.	4A\	dic-	2.r	.	2.r	.	2.r	.	2.ryy	2.ryy
8D\	.	.	.	.	.	.	.	.	.	.	.	.	.	.	.	.
8D\	.	.	4b\	.	4gg\	.	4G\	-ta	.	.	.	.	.	.	.	.
8D\	.	.	.	.	.	.	.	.	.	.	.	.	.	.	.	.
8D\	.	.	4a\	.	4ff#\	.	4F#\	ſunt	.	.	.	.	.	.	.	.
8D\J	.	.	.	.	.	.	.	.	.	.	.	.	.	.	.	.
=21	=21	=21	=21	=21	=21	=21	=21	=21	=21	=21	=21	=21	=21	=21	=21	=21
!	!	!	!	!	!LO:LB:g=original	!	!	!	!	!	!	!	!	!	!	!
8r	.	.	(8b/L 8d/	.	4gg\	.	4G\	mi-	2.r	.	2.r	.	2.r	.	2.ryy	2.ryy
8G\L	.	.	8dd\)	.	.	.	.	.	.	.	.	.	.	.	.	.
8D\	.	.	(8b/ 8d/	.	4r	.	4G\	-hi,	.	.	.	.	.	.	.	.
8BB\J	.	.	8dd\J)	.	.	.	.	.	.	.	.	.	.	.	.	.
4GG/	.	.	4b/ 4d/	.	8gg\L	.	4r	.	.	.	.	.	.	.	.	.
.	.	.	.	.	8aa\J	.	.	.	.	.	.	.	.	.	.	.
=22	=22	=22	=22	=22	=22	=22	=22	=22	=22	=22	=22	=22	=22	=22	=22	=22
!	!	!	!	!	!	!	!LO:LB:g=original	!	!	!	!	!	!	!	!	!
8G\L	.	.	4gg\	.	4bb\	.	4B\	In	2.r	.	2.r	.	2.r	.	2.ryy	2.ryy
8G\	.	.	.	.	.	.	.	.	.	.	.	.	.	.	.	.
8G\	.	.	(8gg\L	.	8bb\L	.	8B\L	Do-	.	.	.	.	.	.	.	.
8G\	.	.	8ff#\	.	8aa\	.	8A\J	.	.	.	.	.	.	.	.	.
8G\	.	.	8gg\)	.	8bb\	.	8B\L	-mum	.	.	.	.	.	.	.	.
8G\J	.	.	8aa\J	.	8ccc\J	.	8c\J	.	.	.	.	.	.	.	.	.
=23	=23	=23	=23	=23	=23	=23	=23	=23	=23	=23	=23	=23	=23	=23	=23	=23
8G\L	.	.	4gg\	.	4bb\	.	(4B\	Do-	2.r	.	2.r	.	2.r	.	2.ryy	2.ryy
8G\	.	.	.	.	.	.	.	.	.	.	.	.	.	.	.	.
8G\	.	.	4bb\	.	4ddd\	.	4d\)	.	.	.	.	.	.	.	.	.
8G\	.	.	.	.	.	.	.	.	.	.	.	.	.	.	.	.
8G\	.	.	4gg\	.	4bb\	.	8B\	-mi-	.	.	.	.	.	.	.	.
8G\J	.	.	.	.	.	.	8B\	-ni	.	.	.	.	.	.	.	.
*Xtremolo	*	*	*	*	*	*	*	*	*	*	*	*	*	*	*	*
=24	=24	=24	=24	=24	=24	=24	=24	=24	=24	=24	=24	=24	=24	=24	=24	=24
8d\L	7 5	.	4aa\	.	4ccc\	.	4.c\	i-	2.r	.	2.r	.	2.r	.	2.ryy	2.ryy
8d\	.	.	.	.	.	.	.	.	.	.	.	.	.	.	.	.
8d\	6 4	.	4gg\	.	4bb\	.	.	.	.	.	.	.	.	.	.	.
8d\	.	.	.	.	.	.	8B\	-bi-	.	.	.	.	.	.	.	.
8d\	5 3	.	4ff#\	.	4aa\	.	4A\	-mus	.	.	.	.	.	.	.	.
8d\J	.	.	.	.	.	.	.	.	.	.	.	.	.	.	.	.
=25	=25	=25	=25	=25	=25	=25	=25	=25	=25	=25	=25	=25	=25	=25	=25	=25
!	!	!	!LO:LB:g=original	!	!	!	!	!	!	!	!	!	!	!	!	!
8r	.	.	8gg\L	.	2bb\	.	8B\	i-	2.r	.	2.r	.	2.r	.	2.ryy	2.ryy
8G\L	.	.	(8dd\	.	.	.	8B\	-bi-	.	.	.	.	.	.	.	.
8D\	.	.	8b\	.	.	.	4B\	-mus,	.	.	.	.	.	.	.	.
8BB\J	.	.	8dd\	.	.	.	.	.	.	.	.	.	.	.	.	.
4GG/	.	.	8gg\)	.	8bb\L	.	4r	.	.	.	.	.	.	.	.	.
.	.	.	8aa\J	.	8ccc\J	.	.	.	.	.	.	.	.	.	.	.
=26	=26	=26	=26	=26	=26	=26	=26	=26	=26	=26	=26	=26	=26	=26	=26	=26
!LO:LB:g=original	!	!	!	!	!	!	!	!	!	!	!	!	!	!	!	!
*tremolo	*	*	*	*	*	*	*	*	*	*	*	*	*	*	*	*
!LO:TX:a:t=P:problem:znak repetycji na początku taktu	!	!	!LO:TX:a:t=P:problem:znak repetycji na początku taktu	!	!LO:TX:a:t=P:problem:znak repetycji na początku taktu	!	!	!	!	!	!	!	!	!	!	!
8G\L	.	.	4bb\	.	4ddd\	.	4d\	Stan-	2.r	.	2.r	.	2.r	.	2.ryy	2.ryy
8G\	.	.	.	.	.	.	.	.	.	.	.	.	.	.	.	.
8G\	.	.	8gg\L	.	8bb\L	.	4B\	-tes	.	.	.	.	.	.	.	.
8G\	.	.	8aa\	.	8ccc\	.	.	.	.	.	.	.	.	.	.	.
8G\	.	.	8bb\	.	8ddd\	.	4r	.	.	.	.	.	.	.	.	.
8G\J	.	.	8gg\J	.	8bb\J	.	.	.	.	.	.	.	.	.	.	.
=27	=27	=27	=27	=27	=27	=27	=27	=27	=27	=27	=27	=27	=27	=27	=27	=27
8D\L	.	.	4ff#\	.	4aa\	.	(4A\	e-	2.r	.	2.r	.	2.r	.	2.ryy	2.ryy
8D\	.	.	.	.	.	.	.	.	.	.	.	.	.	.	.	.
8D\	.	.	4gg\	.	4bb\	.	4B\)	.	.	.	.	.	.	.	.	.
8D\	.	.	.	.	.	.	.	.	.	.	.	.	.	.	.	.
8D\	.	.	4aa\	.	4ccc\	.	4c\	-rant	.	.	.	.	.	.	.	.
8D\J	.	.	.	.	.	.	.	.	.	.	.	.	.	.	.	.
=28	=28	=28	=28	=28	=28	=28	=28	=28	=28	=28	=28	=28	=28	=28	=28	=28
!	!	!	!	!	!	!	!LO:LB:g=original	!	!	!	!	!	!	!	!	!
8G\L	.	.	8gg\L	.	4bb\	.	(4B\	pe-	2.r	.	2.r	.	2.r	.	2.ryy	2.ryy
8G\	.	.	8dd\	.	.	.	.	.	.	.	.	.	.	.	.	.
8G\	.	.	8gg\	.	8bb\L	.	8B\L)	.	.	.	.	.	.	.	.	.
8G\	.	.	8aa\	.	8ccc\	.	8c\J	.	.	.	.	.	.	.	.	.
8G\	.	.	8bb\	.	8ddd\	.	8d\L	-des	.	.	.	.	.	.	.	.
8G\J	.	.	8gg\J	.	8bb\J	.	8B\J	.	.	.	.	.	.	.	.	.
=29	=29	=29	=29	=29	=29	=29	=29	=29	=29	=29	=29	=29	=29	=29	=29	=29
8d\L	5 3	.	4ff#\	.	4aa\	.	4A\	nos-	2.r	.	2.r	.	2.r	.	2.ryy	2.ryy
8d\	.	.	.	.	.	.	.	.	.	.	.	.	.	.	.	.
*	*	*	*Xtuplet	*	*	*	*12\right	*	*	*	*	*	*	*	*	*
!	!	!	!	!	!	!	!LO:TUP:a:problem:klamra łukowa	!	!	!	!	!	!	!	!	!
8d\	6 4	.	12gg\L	.	4bb\	.	12B\L	.	.	.	.	.	.	.	.	.
.	.	.	12ff#\	.	.	.	12A\	.	.	.	.	.	.	.	.	.
8d\	.	.	.	.	.	.	.	.	.	.	.	.	.	.	.	.
.	.	.	12gg\J	.	.	.	12B\J	.	.	.	.	.	.	.	.	.
*	*	*	*tuplet	*	*	*	*	*	*	*	*	*	*	*	*	*
8d\	7 5	.	4aa\	.	4ccc\	.	4c\	-tri	.	.	.	.	.	.	.	.
8d\J	.	.	.	.	.	.	.	.	.	.	.	.	.	.	.	.
=30	=30	=30	=30	=30	=30	=30	=30	=30	=30	=30	=30	=30	=30	=30	=30	=30
!	!	!	!	!	!LO:LB:g=original	!	!	!	!	!	!	!	!	!	!	!
4G\	.	.	4dd\	.	4bb\	.	4B\	in	2.r	.	2.r	.	2.r	.	2.ryy	2.ryy
4E\	.	.	12ff#\L	.	12aa\L	.	4A\	a-	.	.	.	.	.	.	.	.
.	.	.	12gg\	.	12bb\	.	.	.	.	.	.	.	.	.	.	.
.	.	.	12ff#\J	.	12aa\J	.	.	.	.	.	.	.	.	.	.	.
4C#X\	6 5_	.	12ee\L	.	12gg\L	.	8G\	-tri-	.	.	.	.	.	.	.	.
.	.	.	12ff#\	.	12aa\	.	.	.	.	.	.	.	.	.	.	.
.	.	.	.	.	.	.	8G\	-is	.	.	.	.	.	.	.	.
.	.	.	12ee\J	.	12gg\J	.	.	.	.	.	.	.	.	.	.	.
=31	=31	=31	=31	=31	=31	=31	=31	=31	=31	=31	=31	=31	=31	=31	=31	=31
*	*	*	*^	*	*	*	*	*	*	*	*	*	*	*	*	*
4D\	.	.	4a/	2ryy	.	12ff#\L	.	4F#\	tu-	2.r	.	2.r	.	2.r	.	2.ryy	2.ryy
.	.	.	.	.	.	12gg\	.	.	.	.	.	.	.	.	.	.	.
.	.	.	.	.	.	12ff#\J	.	.	.	.	.	.	.	.	.	.	.
!	!	!	!	!	!	!	!	!LO:TUP:a:problem:klamra łukowa	!	!	!	!	!	!	!	!	!
4F#\	7 5	.	12cc\L	.	.	12ee\L	.	12E\L	.	.	.	.	.	.	.	.	.
.	.	.	12dd\	.	.	12ff#\	.	12F#\	.	.	.	.	.	.	.	.	.
.	.	.	12cc\J	.	.	12ee\J	.	12E\J	.	.	.	.	.	.	.	.	.
12G\L	5 3	.	4b/	4g\	.	4dd\	.	4D/	-is	.	.	.	.	.	.	.	.
12A\	.	.	.	.	.	.	.	.	.	.	.	.	.	.	.	.	.
12B\J	.	.	.	.	.	.	.	.	.	.	.	.	.	.	.	.	.
*	*	*	*v	*v	*	*	*	*	*	*	*	*	*	*	*	*	*
=32	=32	=32	=32	=32	=32	=32	=32	=32	=32	=32	=32	=32	=32	=32	=32	=32
4c\	.	.	4g/	.	4ee\	.	4E\	tu-	2.r	.	2.r	.	2.r	.	2.ryy	2.ryy
4c\	.	.	4g/	.	12ee\L	.	12E\L	-is	.	.	.	.	.	.	.	.
.	.	.	.	.	12ff#\	.	12F#\	.	.	.	.	.	.	.	.	.
.	.	.	.	.	12gg\J	.	12G\J	.	.	.	.	.	.	.	.	.
!	!	!	!LO:TUP:b	!	!	!	!	!	!	!	!	!	!	!	!	!
4d\	.	.	12a/L	.	12ff#\L	.	12F#\L	Je-	.	.	.	.	.	.	.	.
.	.	.	12b\	.	12gg\	.	12G\	.	.	.	.	.	.	.	.	.
.	.	.	12cc\J	.	12aa\J	.	12A\J	.	.	.	.	.	.	.	.	.
=33	=33	=33	=33	=33	=33	=33	=33	=33	=33	=33	=33	=33	=33	=33	=33	=33
!	!	!	!LO:LB:g=original	!	!	!	!LO:PB:g=original	!	!	!	!	!	!	!	!	!
4G\	.	.	4b/ 4d/	.	4gg\	.	8G\	-ru-	2.r	.	2.r	.	2.r	.	2.ryy	2.ryy
.	.	.	.	.	.	.	8G\	-sa-	.	.	.	.	.	.	.	.
4GG/	.	.	4b/ 4d/	.	12gg\L	.	4G\	-lem.	.	.	.	.	.	.	.	.
.	.	.	.	.	12aa\	.	.	.	.	.	.	.	.	.	.	.
.	.	.	.	.	12bb\J	.	.	.	.	.	.	.	.	.	.	.
4r	.	.	4r	.	12bb\L	.	4r	.	.	.	.	.	.	.	.	.
.	.	.	.	.	12ccc\	.	.	.	.	.	.	.	.	.	.	.
!LO:TX:a:t=P:problem:znak repetycji na końcu taktu	!	!	!LO:TX:a:t=P:problem:znak repetycji na końcu taktu	!	!LO:TX:a:t=P:problem:znak repetycji na końcu taktu	!	!	!	!	!	!	!	!	!	!	!
.	.	.	.	.	12ddd\J	.	.	.	.	.	.	.	.	.	.	.
=34	=34	=34	=34	=34	=34	=34	=34	=34	=34	=34	=34	=34	=34	=34	=34	=34
!LO:TX:a:t=P:problem:takty 34-41 zapisane repetycją	!	!	!LO:TX:a:t=P:problem:takty 34-41 zapisane repetycją	!	!LO:TX:a:t=P:problem:takty 34-41 zapisane repetycją	!	!	!	!	!	!	!	!	!	!	!
8G\L	.	.	4bb\	.	4ddd\	.	4d\	Je-	2.r	.	2.r	.	2.r	.	2.ryy	2.ryy
8G\	.	.	.	.	.	.	.	.	.	.	.	.	.	.	.	.
8G\	.	.	8gg\L	.	8bb\L	.	8B\	-ru-	.	.	.	.	.	.	.	.
8G\	.	.	8aa\	.	8ccc\	.	8c\	-sa-	.	.	.	.	.	.	.	.
8G\	.	.	8bb\	.	8ddd\	.	4d\	-lem	.	.	.	.	.	.	.	.
8G\J	.	.	8gg\J	.	8bb\J	.	.	.	.	.	.	.	.	.	.	.
=35	=35	=35	=35	=35	=35	=35	=35	=35	=35	=35	=35	=35	=35	=35	=35	=35
8D\L	.	.	4ff#\	.	4aa\	.	(4A\	quae	2.r	.	2.r	.	2.r	.	2.ryy	2.ryy
8D\	.	.	.	.	.	.	.	.	.	.	.	.	.	.	.	.
8D\	.	.	4gg\	.	4bb\	.	4B\)	.	.	.	.	.	.	.	.	.
8D\	.	.	.	.	.	.	.	.	.	.	.	.	.	.	.	.
8D\	.	.	4aa\	.	4ccc\	.	4c\	quae	.	.	.	.	.	.	.	.
8D\J	.	.	.	.	.	.	.	.	.	.	.	.	.	.	.	.
=36	=36	=36	=36	=36	=36	=36	=36	=36	=36	=36	=36	=36	=36	=36	=36	=36
8G\L	.	.	8gg\L	.	4bb\	.	4B\	ae-	2.r	.	2.r	.	2.r	.	2.ryy	2.ryy
8G\	.	.	8dd\	.	.	.	.	.	.	.	.	.	.	.	.	.
8G\	.	.	8gg\	.	8bb\L	.	8B\	-di-	.	.	.	.	.	.	.	.
8G\	.	.	8aa\	.	8ccc\	.	8c\	-fi-	.	.	.	.	.	.	.	.
8G\	.	.	8bb\	.	8ddd\	.	8d\	-ca-	.	.	.	.	.	.	.	.
8G\J	.	.	8gg\J	.	8bb\J	.	8B\	-tur.	.	.	.	.	.	.	.	.
=37	=37	=37	=37	=37	=37	=37	=37	=37	=37	=37	=37	=37	=37	=37	=37	=37
8d\L	5 3	.	4ff#\	.	4aa\	.	4A\	ci-	2.r	.	2.r	.	2.r	.	2.ryy	2.ryy
8d\	.	.	.	.	.	.	.	.	.	.	.	.	.	.	.	.
*	*	*	*Xtuplet	*	*	*	*Xtuplet	*	*	*	*	*	*	*	*	*
8d\	6 4	.	12gg\L	.	4bb\	.	12B\L	-vi-	.	.	.	.	.	.	.	.
.	.	.	12ff#\	.	.	.	12A\	.	.	.	.	.	.	.	.	.
8d\	.	.	.	.	.	.	.	.	.	.	.	.	.	.	.	.
.	.	.	12gg\J	.	.	.	12B\J	.	.	.	.	.	.	.	.	.
*	*	*	*tuplet	*	*	*	*tuplet	*	*	*	*	*	*	*	*	*
8d\	7 5	.	4aa\	.	4ccc\	.	4c\	-tas	.	.	.	.	.	.	.	.
8d\J	.	.	.	.	.	.	.	.	.	.	.	.	.	.	.	.
*Xtremolo	*	*	*	*	*	*	*	*	*	*	*	*	*	*	*	*
=38	=38	=38	=38	=38	=38	=38	=38	=38	=38	=38	=38	=38	=38	=38	=38	=38
!	!	!	!	!	!LO:LB:g=original	!	!LO:LB:g=original	!	!	!	!	!	!	!	!	!
4G\	.	.	4dd\	.	4bb\	.	4B\	cu-	2.r	.	2.r	.	2.r	.	2.ryy	2.ryy
4E\	.	.	12ff#\L	.	12aa\L	.	8A\	-jus	.	.	.	.	.	.	.	.
.	.	.	12gg\	.	12bb\	.	.	.	.	.	.	.	.	.	.	.
.	.	.	.	.	.	.	8A\	par-	.	.	.	.	.	.	.	.
.	.	.	12ff#\J	.	12aa\J	.	.	.	.	.	.	.	.	.	.	.
4C#X\	6 5_	.	12ee\L	.	12gg\L	.	8G\	-ti-	.	.	.	.	.	.	.	.
.	.	.	12ff#\	.	12aa\	.	.	.	.	.	.	.	.	.	.	.
.	.	.	.	.	.	.	8G\	-ci-	.	.	.	.	.	.	.	.
.	.	.	12ee\J	.	12gg\J	.	.	.	.	.	.	.	.	.	.	.
=39	=39	=39	=39	=39	=39	=39	=39	=39	=39	=39	=39	=39	=39	=39	=39	=39
*	*	*	*^	*	*	*	*	*	*	*	*	*	*	*	*	*
!	!	!	!	!	!	!	!	!LO:TUP:a:problem:klamra łukowa	!	!	!	!	!	!	!	!	!
4D\	.	.	4a/	2ryy	.	12ff#\L	.	12F#\L	-pa-	2.r	.	2.r	.	2.r	.	2.ryy	2.ryy
.	.	.	.	.	.	12gg\	.	12G\	.	.	.	.	.	.	.	.	.
.	.	.	.	.	.	12ff#\J	.	12F#\J	.	.	.	.	.	.	.	.	.
!	!	!	!	!	!	!	!	!LO:TUP:a:problem:klamra łukowa	!	!	!	!	!	!	!	!	!
4F#\	7 5	.	12cc\L	.	.	12ee\L	.	12E\L	-ti-	.	.	.	.	.	.	.	.
.	.	.	12dd\	.	.	12ff#\	.	12F#\	.	.	.	.	.	.	.	.	.
.	.	.	12cc\J	.	.	12ee\J	.	12E\J	.	.	.	.	.	.	.	.	.
12G\L	.	.	4b/	4g\	.	4dd\	.	4D\	-o	.	.	.	.	.	.	.	.
12A\	.	.	.	.	.	.	.	.	.	.	.	.	.	.	.	.	.
12B\J	.	.	.	.	.	.	.	.	.	.	.	.	.	.	.	.	.
*	*	*	*v	*v	*	*	*	*	*	*	*	*	*	*	*	*	*
=40	=40	=40	=40	=40	=40	=40	=40	=40	=40	=40	=40	=40	=40	=40	=40	=40
4c\	.	.	4g/	.	4ee\	.	4E\	e-	2.r	.	2.r	.	2.r	.	2.ryy	2.ryy
4c\	.	.	4g/	.	12ee\L	.	12E\L	-jus	.	.	.	.	.	.	.	.
.	.	.	.	.	12ff#\	.	12F#\	.	.	.	.	.	.	.	.	.
.	.	.	.	.	12gg\J	.	12G\J	.	.	.	.	.	.	.	.	.
4d\	.	.	12a/L	.	12ff#\L	.	8F#\	in	.	.	.	.	.	.	.	.
.	.	.	12b\	.	12gg\	.	.	.	.	.	.	.	.	.	.	.
.	.	.	.	.	.	.	8A\	id	.	.	.	.	.	.	.	.
.	.	.	12cc\J	.	12aa\J	.	.	.	.	.	.	.	.	.	.	.
=41	=41	=41	=41	=41	=41	=41	=41	=41	=41	=41	=41	=41	=41	=41	=41	=41
!	!	!	!LO:LB:g=original	!	!	!	!	!	!	!	!	!	!	!	!	!
4G\	.	.	4b/ 4d/	.	4gg\	.	4G\	ip-	2.r	.	2.r	.	2.r	.	2.ryy	2.ryy
4GG/	.	.	4b/ 4d/	.	12gg\L	.	4G\	-sum,	.	.	.	.	.	.	.	.
.	.	.	.	.	12aa\	.	.	.	.	.	.	.	.	.	.	.
.	.	.	.	.	12bb\J	.	.	.	.	.	.	.	.	.	.	.
4r	.	.	4r	.	12bb\L	.	4r	.	.	.	.	.	.	.	.	.
.	.	.	.	.	12ccc\	.	.	.	.	.	.	.	.	.	.	.
.	.	.	.	.	12ddd\J	.	.	.	.	.	.	.	.	.	.	.
=42	=42	=42	=42	=42	=42	=42	=42	=42	=42	=42	=42	=42	=42	=42	=42	=42
*	*	*	*tremolo	*	*	*	*	*	*	*	*4\right	*	*	*	*	*
!LO:TX:a:Bi:t=Tutti	!	!	!LO:TX:a:t=Tutti	!	!LO:TX:a:Bi:t=Tutti.	!	!	!	!	!	!LO:TX:a:t=pausen.:problem:niejednoznaczny napis	!	!LO:TX:a:Bi:t=Tutti	!	!	!
8F#\L	.	.	16dd\LL	.	4ccc\	.	4D\	il-	4c\	Ill-	4a\	Qui-	4dd\	Qui-	2.ryy	2.ryy
.	.	.	16dd\	.	.	.	.	.	.	.	.	.	.	.	.	.
8D\	.	.	16dd\	.	.	.	.	.	.	.	.	.	.	.	.	.
.	.	.	16dd\	.	.	.	.	.	.	.	.	.	.	.	.	.
8F#\	.	.	16dd\	.	12dd\L	.	4F#X\	-lic	8D/L	-ic	4a\	-a	4dd\	-a	.	.
.	.	.	16dd\	.	.	.	.	.	.	.	.	.	.	.	.	.
.	.	.	.	.	12ee\	.	.	.	.	.	.	.	.	.	.	.
8D\	.	.	16dd\	.	.	.	.	.	8F#/J	.	.	.	.	.	.	.
.	.	.	.	.	12ff#\J	.	.	.	.	.	.	.	.	.	.	.
.	.	.	16dd\	.	.	.	.	.	.	.	.	.	.	.	.	.
*	*	*	*	*	*	*	*	*	*	*	*8\right	*	*	*	*	*
8F#\	.	.	16dd\	.	12ff#\L	.	8F#\	e-	8F#/	e-	8a\	il-	8dd\	il-	.	.
.	.	.	16dd\	.	.	.	.	.	.	.	.	.	.	.	.	.
.	.	.	.	.	12gg\	.	.	.	.	.	.	.	.	.	.	.
8D\J	.	.	16dd\	.	.	.	8F#\	-nim	8A/	-nim	8a\	-lic	8dd\	-lic	.	.
.	.	.	.	.	12aa\J	.	.	.	.	.	.	.	.	.	.	.
.	.	.	16dd\JJ	.	.	.	.	.	.	.	.	.	.	.	.	.
=43	=43	=43	=43	=43	=43	=43	=43	=43	=43	=43	=43	=43	=43	=43	=43	=43
!LO:LB:g=original	!	!	!	!	!LO:LB:g=original	!	!LO:LB:g=original	!	!	!	!	!	!	!	!	!
8G\L	.	.	16dd/LL 16d/	.	4bb\	.	4G\	as-	4B\	aſ-	4b\	ſe-	4gg\	se-	2.ryy	2.ryy
.	.	.	16dd/ 16d/	.	.	.	.	.	.	.	.	.	.	.	.	.
8D\	.	.	16dd/ 16d/	.	.	.	.	.	.	.	.	.	.	.	.	.
.	.	.	16dd/ 16d/	.	.	.	.	.	.	.	.	.	.	.	.	.
!	!	!	!	!	!LO:TUP:a:problem:klamra łukowa	!	!	!	!	!	!	!	!	!	!	!
*	*	*	*	*	*tuplet	*	*	*	*Xtuplet	*	*	*	*	*	*	*
8G\	.	.	16dd/ 16d/	.	12gg\L	.	4G\	-cen-	12G/L	-cen-	4b\	-de-	4gg\	-de-	.	.
.	.	.	16dd/ 16d/	.	.	.	.	.	.	.	.	.	.	.	.	.
.	.	.	.	.	12aa\	.	.	.	12A\	.	.	.	.	.	.	.
8D\	.	.	16dd/ 16d/	.	.	.	.	.	.	.	.	.	.	.	.	.
.	.	.	.	.	12bb\	.	.	.	12B\J	.	.	.	.	.	.	.
.	.	.	16dd/ 16d/	.	.	.	.	.	.	.	.	.	.	.	.	.
!	!	!	!	!	!	!	!	!	!LO:LB:g=original	!	!	!	!	!	!	!
8G\	.	.	16dd/ 16d/	.	12bb\	.	8G\	-de-	8B\	-de-	4b\	-runt	4gg\	-runt	.	.
.	.	.	16dd/ 16d/	.	.	.	.	.	.	.	.	.	.	.	.	.
.	.	.	.	.	12ccc\	.	.	.	.	.	.	.	.	.	.	.
8D\J	.	.	16dd/ 16d/	.	.	.	8G\	-runt	8d\	-runt	.	.	.	.	.	.
.	.	.	.	.	12ddd\J	.	.	.	.	.	.	.	.	.	.	.
.	.	.	16dd/JJ 16d/	.	.	.	.	.	.	.	.	.	.	.	.	.
*	*	*	*	*	*Xtuplet	*	*	*	*	*	*	*	*	*	*	*
=44	=44	=44	=44	=44	=44	=44	=44	=44	=44	=44	=44	=44	=44	=44	=44	=44
!	!	!	!	!	!	!	!	!	!	!	!LO:LB:g=original	!	!	!LO:LB:g=original	!	!
8A\L	6_	.	16dd/LL 16d/	.	4ccc\	.	4A\	tri-	4c\	tri-	4a\	se-	4ff#\	se-	2.ryy	2.ryy
.	.	.	16dd/ 16d/	.	.	.	.	.	.	.	.	.	.	.	.	.
8D\	.	.	16dd/ 16d/	.	.	.	.	.	.	.	.	.	.	.	.	.
.	.	.	16dd/ 16d/	.	.	.	.	.	.	.	.	.	.	.	.	.
8F#\	.	.	16dd/ 16d/	.	12ff#\L	.	4D\	-bus	8F#/L	-bus.	4a\	-des	4ff#\	-des	.	.
.	.	.	16dd/ 16d/	.	.	.	.	.	.	.	.	.	.	.	.	.
.	.	.	.	.	12gg\	.	.	.	.	.	.	.	.	.	.	.
8D\	.	.	16dd/ 16d/	.	.	.	.	.	8A\J	.	.	.	.	.	.	.
.	.	.	.	.	12aa\J	.	.	.	.	.	.	.	.	.	.	.
.	.	.	16dd/ 16d/	.	.	.	.	.	.	.	.	.	.	.	.	.
*	*	*	*	*	*	*	*16\right	*	*	*	*	*	*	*	*	*
8F#\	.	.	16dd/ 16d/	.	12aa\L	.	16F#X\	Do-	8A/	Do-	8a\	in	8ff#\	in	.	.
.	.	.	16dd/ 16d/	.	.	.	16F#\	-mi-	.	.	.	.	.	.	.	.
.	.	.	.	.	12bb\	.	.	.	.	.	.	.	.	.	.	.
8D\J	.	.	16dd/ 16d/	.	.	.	8F#\	-ni	16c\	-mi-	8a\	ju-	8ff#\	ju-	.	.
.	.	.	.	.	12ccc\J	.	.	.	.	.	.	.	.	.	.	.
.	X	.	16dd/JJ 16d/	.	.	.	.	.	16c\	-ni	.	.	.	.	.	.
=45	=45	=45	=45	=45	=45	=45	=45	=45	=45	=45	=45	=45	=45	=45	=45	=45
!	!	!	!	!	!	!	!	!	!LO:SIC:l:s=tes-:v	!	!	!	!	!	!	!
8G\L	.	.	16g/LL 16G/	.	4bb\	.	8G\	tes-	4B\	les-	4b\	-di-	4dd\	-di-	2.ryy	2.ryy
.	.	.	16g/ 16G/	.	.	.	.	.	.	.	.	.	.	.	.	.
8D\	.	.	16g/ 16G/	.	.	.	8G\	-ti-	.	.	.	.	.	.	.	.
.	.	.	16g/ 16G/	.	.	.	.	.	.	.	.	.	.	.	.	.
8G\	.	.	16g/ 16G/	.	12gg\L	.	4G\	-mo-	4G/	-ti-	4b\	-ci-	4dd\	-ti-	.	.
.	.	.	16g/ 16G/	.	.	.	.	.	.	.	.	.	.	.	.	.
.	.	.	.	.	12aa\	.	.	.	.	.	.	.	.	.	.	.
8D\	.	.	16g/ 16G/	.	.	.	.	.	.	.	.	.	.	.	.	.
.	.	.	.	.	12bb\J	.	.	.	.	.	.	.	.	.	.	.
.	.	.	16g/ 16G/	.	.	.	.	.	.	.	.	.	.	.	.	.
8G\	.	.	16g/ 16G/	.	12bb\L	.	8G\	-ni-	8B\	-mo-	4b\	-o	4dd\	-o	.	.
.	.	.	16g/ 16G/	.	.	.	.	.	.	.	.	.	.	.	.	.
.	.	.	.	.	12ccc\	.	.	.	.	.	.	.	.	.	.	.
8D\J	.	.	16g/ 16G/	.	.	.	8G\	-um	16d\	-ni-	.	.	.	.	.	.
.	.	.	.	.	12ddd\J	.	.	.	.	.	.	.	.	.	.	.
.	.	.	16g/JJ 16G/	.	.	.	.	.	16d\	-um	.	.	.	.	.	.
=46	=46	=46	=46	=46	=46	=46	=46	=46	=46	=46	=46	=46	=46	=46	=46	=46
8B\L	6	.	16g/LL 16d/ 16B/	.	4ddd\	.	4.B\	Is-	4.gn\	Is-	4g\	Se-	4dd\	se-	2.ryy	2.ryy
.	.	.	16g/ 16d/ 16B/	.	.	.	.	.	.	.	.	.	.	.	.	.
8G\	.	.	16g/ 16d/ 16B/	.	.	.	.	.	.	.	.	.	.	.	.	.
.	.	.	16g/ 16d/ 16B/	.	.	.	.	.	.	.	.	.	.	.	.	.
8B\	6 n5	.	16g/ 16d/ 16B/	.	12ffn\L	.	.	.	.	.	4g\	-des	4ffn\	-des	.	.
.	.	.	16g/ 16d/ 16B/	.	.	.	.	.	.	.	.	.	.	.	.	.
.	.	.	.	.	12ee\	.	.	.	.	.	.	.	.	.	.	.
8G\	.	.	16g/ 16d/ 16B/	.	.	.	8B\	-ra-	8f#\	-ra-	.	.	.	.	.	.
.	.	.	.	.	12ff\J	.	.	.	.	.	.	.	.	.	.	.
.	.	.	16g/ 16d/ 16B/	.	.	.	.	.	.	.	.	.	.	.	.	.
8B\	.	.	16g/ 16d/ 16B/	.	12dd\L	.	4B\	-el	4f#\	-el	8g\	su-	8dd\	su-	.	.
.	.	.	16g/ 16d/ 16B/	.	.	.	.	.	.	.	.	.	.	.	.	.
.	.	.	.	.	12ee\	.	.	.	.	.	.	.	.	.	.	.
8G\J	.	.	16g/ 16d/ 16B/	.	.	.	.	.	.	.	8g\	-per	8ff\	-per	.	.
.	.	.	.	.	12ff\J	.	.	.	.	.	.	.	.	.	.	.
.	.	.	16g/JJ 16d/ 16B/	.	.	.	.	.	.	.	.	.	.	.	.	.
=47	=47	=47	=47	=47	=47	=47	=47	=47	=47	=47	=47	=47	=47	=47	=47	=47
!	!	!	!	!	!	!	!LO:LB:g=original	!	!LO:LB:g=original	!	!	!	!	!	!	!
*	*	*	*	*	*	*	*	*	*	*	*2\right	*	*	*	*	*
8c\L	.	.	16g/LL	.	4gg\	.	4c\	ad	4e\	ad	2g\	Do-	(4gg\	Do-	2.ryy	2.ryy
.	.	.	16g/	.	.	.	.	.	.	.	.	.	.	.	.	.
8G\	.	.	16g/	.	.	.	.	.	.	.	.	.	.	.	.	.
.	.	.	16g/	.	.	.	.	.	.	.	.	.	.	.	.	.
8c\	.	.	16g/	.	12ee\L	.	8c\	con-	8e\	con-	.	.	4ee\)	.	.	.
.	.	.	16g/	.	.	.	.	.	.	.	.	.	.	.	.	.
.	.	.	.	.	12dd\	.	.	.	.	.	.	.	.	.	.	.
8G\	.	.	16g/	.	.	.	8c\	-fi-	8e\	-fi-	.	.	.	.	.	.
.	.	.	.	.	12ee\J	.	.	.	.	.	.	.	.	.	.	.
.	.	.	16g/	.	.	.	.	.	.	.	.	.	.	.	.	.
8c\	.	.	16g/	.	12cc\L	.	8c\	-den-	8c\	-den-	4g\	-mum	4cc\	-mum	.	.
.	.	.	16g/	.	.	.	.	.	.	.	.	.	.	.	.	.
.	.	.	.	.	12dd\	.	.	.	.	.	.	.	.	.	.	.
8G\J	.	.	16g/	.	.	.	8c\	-dum	8e\	-dum	.	.	.	.	.	.
.	.	.	.	.	12ee\J	.	.	.	.	.	.	.	.	.	.	.
.	.	.	16g/JJ	.	.	.	.	.	.	.	.	.	.	.	.	.
=48	=48	=48	=48	=48	=48	=48	=48	=48	=48	=48	=48	=48	=48	=48	=48	=48
!	!	!	!	!	!LO:LB:g=original	!	!	!	!	!	!	!	!	!	!	!
*	*	*	*	*	*	*	*	*	*	*	*	*ij	*	*	*	*
8d\L	6 4 n3	.	16g/LL	.	4ffn\	.	4d\	No-	4B\	no-	2g\	Do-	(4ffn\	do-	2.ryy	2.ryy
.	6_ 4_ n3_	.	16g/	.	.	.	.	.	.	.	.	.	.	.	.	.
8G\	.	.	16g/	.	.	.	.	.	.	.	.	.	.	.	.	.
.	.	.	16g/	.	.	.	.	.	.	.	.	.	.	.	.	.
8B\	X X X	.	16g/	.	12dd\L	.	4B\	-mi-	4d\	-mi-	.	.	4dd\)	.	.	.
.	.	.	16g/	.	.	.	.	.	.	.	.	.	.	.	.	.
.	.	.	.	.	12ee\	.	.	.	.	.	.	.	.	.	.	.
8G\	.	.	16g/	.	.	.	.	.	.	.	.	.	.	.	.	.
.	.	.	.	.	12ff\J	.	.	.	.	.	.	.	.	.	.	.
.	.	.	16g/	.	.	.	.	.	.	.	.	.	.	.	.	.
8B\	.	.	16g/	.	12dd\L	.	4G\	-ni	4d\	-ni	4g\	-mum	4ff\	-mum	.	.
*	*	*	*	*	*	*	*	*	*	*	*	*Xij	*	*	*	*
.	.	.	16g/	.	.	.	.	.	.	.	.	.	.	.	.	.
.	.	.	.	.	12ee\	.	.	.	.	.	.	.	.	.	.	.
8G\J	.	.	16g/	.	.	.	.	.	.	.	.	.	.	.	.	.
.	.	.	.	.	12ff\J	.	.	.	.	.	.	.	.	.	.	.
.	.	.	16g/JJ	.	.	.	.	.	.	.	.	.	.	.	.	.
=49	=49	=49	=49	=49	=49	=49	=49	=49	=49	=49	=49	=49	=49	=49	=49	=49
!LO:LB:g=original	!	!	!	!	!	!	!	!	!	!	!	!	!LO:LB:g=original	!	!	!
8c\L	.	.	16g/LL	.	4gg\	.	8c\	Do-	8e\	Do-	2g\	Da-	4gg\	da-	2.ryy	2.ryy
.	.	.	16g/	.	.	.	.	.	.	.	.	.	.	.	.	.
8G\	.	.	16g/	.	.	.	8c\	-mi-	8e\	-mi-	.	.	.	.	.	.
.	.	.	16g/	.	.	.	.	.	.	.	.	.	.	.	.	.
*	*	*	*	*	*	*	*2\right	*	*2\right	*	*	*	*	*	*	*
8c\	.	.	16g/	.	12ee\L	.	2c\	-ni	2e\	-ni	.	.	12ee\L	.	.	.
.	.	.	16g/	.	.	.	.	.	.	.	.	.	.	.	.	.
.	.	.	.	.	12dd\	.	.	.	.	.	.	.	12dd\	.	.	.
8G\	.	.	16g/	.	.	.	.	.	.	.	.	.	.	.	.	.
.	.	.	.	.	12ee\J	.	.	.	.	.	.	.	12ee\J	.	.	.
.	.	.	16g/	.	.	.	.	.	.	.	.	.	.	.	.	.
8c\	.	.	16g/	.	12cc\L	.	.	.	.	.	4g\	-vid	4ccn\	-vid	.	.
.	.	.	16g/	.	.	.	.	.	.	.	.	.	.	.	.	.
.	.	.	.	.	12dd\	.	.	.	.	.	.	.	.	.	.	.
8G\J	.	.	16g/	.	.	.	.	.	.	.	.	.	.	.	.	.
.	.	.	.	.	12ee\J	.	.	.	.	.	.	.	.	.	.	.
.	.	.	16g/JJ	.	.	.	.	.	.	.	.	.	.	.	.	.
=50	=50	=50	=50	=50	=50	=50	=50	=50	=50	=50	=50	=50	=50	=50	=50	=50
4r	.	.	2b/ 2d/	.	4ffn\	.	4d\	ro-	4d\	Ro-	2b\	fi-	4ffn\	fi-	2.ryy	2.ryy
*	*	*	*	*	*	*	*	*	*	*	*	*	*Xtuplet	*	*	*
4D\	6 n	.	.	.	12ff\L	.	4d\	-ga-	4d\	-ga-	.	.	12ff\L	.	.	.
.	.	.	.	.	12ee\	.	.	.	.	.	.	.	12ee\	.	.	.
.	.	.	.	.	12dd\J	.	.	.	.	.	.	.	12dd\J	.	.	.
4D#X\	7 5 #	.	4a/ 4f#X/	.	12cc\L	.	4d#X\	-te	4f#\	-te	4a\	-at	12cc\L	-at	.	.
.	.	.	.	.	12b\	.	.	.	.	.	.	.	12b\	.	.	.
.	.	.	.	.	12a\J	.	.	.	.	.	.	.	12a\J	.	.	.
=51	=51	=51	=51	=51	=51	=51	=51	=51	=51	=51	=51	=51	=51	=51	=51	=51
!	!	!	!	!	!	!	!	!	!LO:SIC:l:s=quae:v	!	!	!	!	!	!	!
4E\	x #	.	4B/	.	4g#X/	.	8e\	quae	8e\	que	4b\	pax	4g#X/	pax	2.ryy	2.ryy
.	.	.	.	.	.	.	8E\	ad	8e\	ad	.	.	.	.	.	.
!	!	!	!	!	!	!	!	!	!LO:LB:g=original	!	!	!	!	!	!	!
4E\	.	.	4g#X/ 4B/	.	12e/L	.	4E\	pa-	8e\L	pa-	8e\	in	8e/	in	.	.
.	.	.	.	.	12f#/	.	.	.	.	.	.	.	.	.	.	.
.	.	.	.	.	.	.	.	.	8B\J	.	8e\	vir-	8g#/	vir-	.	.
.	.	.	.	.	12g#/J	.	.	.	.	.	.	.	.	.	.	.
!	!	!	!LO:TUP:b	!	!	!	!	!	!	!	!LO:LB:g=original	!	!	!	!	!
4E\	.	.	12e/L	.	12g#/L	.	4E\	-cem	4G#X/	-cem	8e\	-tu-	8b\	-tu-	.	.
.	.	.	12f#/	.	12a/	.	.	.	.	.	.	.	.	.	.	.
!	!	!	!	!	!	!	!	!	!	!	!	!	!LO:SIC:l:s=-te:v	!	!	!
.	.	.	.	.	.	.	.	.	.	.	8e\	-te	8b\	-le	.	.
.	.	.	12g#/J	.	12b\J	.	.	.	.	.	.	.	.	.	.	.
=52	=52	=52	=52	=52	=52	=52	=52	=52	=52	=52	=52	=52	=52	=52	=52	=52
!	!	!	!LO:LB:g=original	!	!	!	!LO:LB:g=original	!	!	!	!	!	!	!	!	!
8A\L	7	.	16e/LL	.	4cc\	.	8A\	ſunt	8c\	Sunt	4e\	tu-	4cc\	tu-	2.ryy	2.ryy
.	.	.	16e/	.	.	.	.	.	.	.	.	.	.	.	.	.
8E\	.	.	16e/	.	.	.	8A\	Je-	8c\	Je-	.	.	.	.	.	.
.	.	.	16e/	.	.	.	.	.	.	.	.	.	.	.	.	.
8c\	.	.	16e/	.	12a\L	.	8c\	-ru-	8e\	-ru-	4e\	-a.	4a\	-a	.	.
.	.	.	16e/	.	.	.	.	.	.	.	.	.	.	.	.	.
.	.	.	.	.	12b\	.	.	.	.	.	.	.	.	.	.	.
8E\	.	.	16e/	.	.	.	8c\	-sa-	8e\	-sa-	.	.	.	.	.	.
.	.	.	.	.	12cc\J	.	.	.	.	.	.	.	.	.	.	.
.	.	.	16e/	.	.	.	.	.	.	.	.	.	.	.	.	.
8A\	.	.	16e/	.	12cc\L	.	4A\	-lem	4c\	-lem	4r	.	4r	.	.	.
.	.	.	16e/	.	.	.	.	.	.	.	.	.	.	.	.	.
.	.	.	.	.	12dd\	.	.	.	.	.	.	.	.	.	.	.
8E\J	.	.	16e/	.	.	.	.	.	.	.	.	.	.	.	.	.
.	.	.	.	.	12ee\J	.	.	.	.	.	.	.	.	.	.	.
.	.	.	16e/JJ	.	.	.	.	.	.	.	.	.	.	.	.	.
=53	=53	=53	=53	=53	=53	=53	=53	=53	=53	=53	=53	=53	=53	=53	=53	=53
8B\L	6\	.	16e/LL	.	4dd\	.	4B\	et	4G#X/	et	4e\	tu-	4dd\	tu-	2.ryy	2.ryy
.	.	.	16e/	.	.	.	.	.	.	.	.	.	.	.	.	.
8E\J	.	.	16e/	.	.	.	.	.	.	.	.	.	.	.	.	.
.	.	.	16e/	.	.	.	.	.	.	.	.	.	.	.	.	.
8G#X\L	#	.	16e/	.	12g#X/L	.	4E\	a-	4G#/	a-	4e\	-a	4b\	-a	.	.
.	.	.	16e/	.	.	.	.	.	.	.	.	.	.	.	.	.
.	.	.	.	.	12a/	.	.	.	.	.	.	.	.	.	.	.
8E\	.	.	16e/	.	.	.	.	.	.	.	.	.	.	.	.	.
.	.	.	.	.	12b\J	.	.	.	.	.	.	.	.	.	.	.
.	.	.	16e/	.	.	.	.	.	.	.	.	.	.	.	.	.
8G#\	6 5	.	16e/	.	12b\L	.	4G#X\	-bun-	4B\	-bun-	4r	.	4r	.	.	.
.	.	.	16e/	.	.	.	.	.	.	.	.	.	.	.	.	.
.	.	.	.	.	12cc\	.	.	.	.	.	.	.	.	.	.	.
8E\J	.	.	16e/	.	.	.	.	.	.	.	.	.	.	.	.	.
.	.	.	.	.	12dd\J	.	.	.	.	.	.	.	.	.	.	.
.	.	.	16e/JJ	.	.	.	.	.	.	.	.	.	.	.	.	.
=54	=54	=54	=54	=54	=54	=54	=54	=54	=54	=54	=54	=54	=54	=54	=54	=54
!	!	!	!	!	!LO:LB:g=original	!	!	!	!	!	!	!	!LO:LB:g=original	!	!	!
!	!	!	!	!	!	!	!	!	!LO:SIC:l:s=-dan-:v	!	!	!	!	!	!	!
8A\L	n	.	16e/LL	.	4cc\	.	8A\	-dan-	8c\	-da-	4a\	et	4cc\	et	2.ryy	2.ryy
.	.	.	16e/	.	.	.	.	.	.	.	.	.	.	.	.	.
!	!	!	!	!	!	!	!	!	!LO:SIC:l:s=-ti-:v	!	!	!	!	!	!	!
8E\	.	.	16e/	.	.	.	8A\	-ti-	8c\	-ci-	.	.	.	.	.	.
.	.	.	16e/	.	.	.	.	.	.	.	.	.	.	.	.	.
8c\	.	.	16e/	.	12a\L	.	2A\	-a	2c\	-a	8a\	a-	8cc\	a-	.	.
.	.	.	16e/	.	.	.	.	.	.	.	.	.	.	.	.	.
.	.	.	.	.	12b\	.	.	.	.	.	.	.	.	.	.	.
8E\	.	.	16e/	.	.	.	.	.	.	.	8a\	-bun-	8cc\	-bun-	.	.
.	.	.	.	.	12cc\J	.	.	.	.	.	.	.	.	.	.	.
.	.	.	16e/	.	.	.	.	.	.	.	.	.	.	.	.	.
!	!	!	!	!	!	!	!	!	!	!	!	!	!LO:SIC:l:s=-dan-:v	!	!	!
8A\	.	.	16e/	.	12cc\L	.	.	.	.	.	8a\	-dan-	8ee\	-da-	.	.
.	.	.	16e/	.	.	.	.	.	.	.	.	.	.	.	.	.
.	.	.	.	.	12dd\	.	.	.	.	.	.	.	.	.	.	.
*	*	*	*	*	*	*	*	*	*	*	*16\right	*	*	*	*	*
8E\J	.	.	16e/	.	.	.	.	.	.	.	16a\	-ti-	16ee\	-ti-	.	.
.	.	.	.	.	12ee\J	.	.	.	.	.	.	.	.	.	.	.
.	.	.	16e/JJ	.	.	.	.	.	.	.	16a\	-a	16ee\	-a	.	.
=55	=55	=55	=55	=55	=55	=55	=55	=55	=55	=55	=55	=55	=55	=55	=55	=55
!LO:LB:g=original	!	!	!	!	!	!	!	!	!	!	!	!	!	!	!	!
!LO:TX:a:t=P:problem:mixed beam	!	!	!	!	!	!	!	!	!	!	!	!	!	!	!	!
8G\L	#4_ 2_	.	16e/LL 16c#X/	.	4ee\	.	8Gn\	di-	8A/	di-	4cc#X\	in	4ee\	in	2.ryy	2.ryy
.	.	.	16e/ 16c#/	.	.	.	.	.	.	.	.	.	.	.	.	.
8AA/J	.	.	16e/ 16c#/	.	.	.	8G\	-li-	8A/	-li-	.	.	.	.	.	.
.	.	.	16e/ 16c#/	.	.	.	.	.	.	.	.	.	.	.	.	.
!LO:TX:a:t=P:problem:mixed beam	!	!	!	!	!	!	!	!	!	!	!	!	!	!	!	!
8G\L	.	.	16e/ 16c#/	.	12cc#X\L	.	4G\	-gen-	4c#X\	-gen-	8a\	tur-	8cc#X\	tur-	.	.
.	.	.	16e/ 16c#/	.	.	.	.	.	.	.	.	.	.	.	.	.
.	.	.	.	.	12dd\	.	.	.	.	.	.	.	.	.	.	.
8AA/J	.	.	16e/ 16c#/	.	.	.	.	.	.	.	8a\	-ri-	8ee\	-ri-	.	.
.	.	.	.	.	12ee\J	.	.	.	.	.	.	.	.	.	.	.
.	.	.	16e/ 16c#/	.	.	.	.	.	.	.	.	.	.	.	.	.
8E/L	.	.	16e/ 16c#/	.	12a\L	.	8G\	-ti-	8c#\	-ti-	4a\	-bus	12a\L	-bus	.	.
.	.	.	16e/ 16c#/	.	.	.	.	.	.	.	.	.	.	.	.	.
.	.	.	.	.	12b\	.	.	.	.	.	.	.	12b\	.	.	.
8AA/J	.	.	16e/ 16c#/	.	.	.	8G\	-bus	8c#\	-bus	.	.	.	.	.	.
.	.	.	.	.	12cc#\J	.	.	.	.	.	.	.	12cc#\J	.	.	.
.	X X	.	16e/JJ 16c#/	.	.	.	.	.	.	.	.	.	.	.	.	.
=56	=56	=56	=56	=56	=56	=56	=56	=56	=56	=56	=56	=56	=56	=56	=56	=56
!	!	!	!	!	!	!	!	!	!LO:PB:g=original	!	!LO:LB:g=original	!	!	!	!	!
8Fn\L	6_	.	16a/LL 16fn/	.	4dd\	.	4Fn\	te	4d\	te	4a\	tu-	4dd\	tu-	2.ryy	2.ryy
.	.	.	16a/ 16f/	.	.	.	.	.	.	.	.	.	.	.	.	.
8D\	.	.	16a/ 16f/	.	.	.	.	.	.	.	.	.	.	.	.	.
.	.	.	16a/ 16f/	.	.	.	.	.	.	.	.	.	.	.	.	.
!	!	!	!	!	!	!	!	!	!LO:SIC:l:s=te:v	!	!	!	!	!	!	!
8F\	.	.	16a/ 16f/	.	12dd\L	.	4D/	te,	4Dn/	le	4a\	-is	4dd\	-is	.	.
.	.	.	16a/ 16f/	.	.	.	.	.	.	.	.	.	.	.	.	.
.	.	.	.	.	12aa\	.	.	.	.	.	.	.	.	.	.	.
8D\J	.	.	16a/ 16f/	.	.	.	.	.	.	.	.	.	.	.	.	.
.	.	.	.	.	12gg\J	.	.	.	.	.	.	.	.	.	.	.
.	.	.	16a/ 16f/	.	.	.	.	.	.	.	.	.	.	.	.	.
8F\L	.	.	16a/ 16f/	.	12ffn\L	.	4r	.	4r	.	4r	.	4r	.	.	.
.	.	.	16a/ 16f/	.	.	.	.	.	.	.	.	.	.	.	.	.
.	.	.	.	.	12ee\	.	.	.	.	.	.	.	.	.	.	.
8D\J	.	.	16a/ 16f/	.	.	.	.	.	.	.	.	.	.	.	.	.
.	.	.	.	.	12dd\J	.	.	.	.	.	.	.	.	.	.	.
.	X	.	16a/JJ 16f/	.	.	.	.	.	.	.	.	.	.	.	.	.
*	*	*	*Xtremolo	*	*	*	*	*	*	*	*	*	*	*	*	*
=57	=57	=57	=57	=57	=57	=57	=57	=57	=57	=57	=57	=57	=57	=57	=57	=57
!	!	!	!	!	!	!	!LO:LB:g=original	!	!	!	!	!	!	!	!	!
!LO:TX:a:t=P:problem:mixed beam	!	!	!	!	!	!LO:SIC:l:s=pro-:v	!	!	!	!	!	!	!	!	!	!
8G\L	6_ 4_ 2_	.	2.cc#X/ 2.e/	.	4ee\	.	8G\	.	8A/	pro-	4a\	pro-	4ee\	pro-	2.ryy	2.ryy
8AA/J	.	.	.	.	.	.	8G\	-pter	8A/	-pter	.	.	.	.	.	.
!LO:TX:a:t=P:problem:mixed beam	!	!	!	!	!	!	!	!	!	!	!	!	!	!	!	!
8G\L	.	.	.	.	12cc#X\L	.	4G\	fra-	4e\	fra-	4a\	-pter	12cc#X\L	-pter	.	.
.	.	.	.	.	12dd\	.	.	.	.	.	.	.	12dd\	.	.	.
8AA/J	.	.	.	.	.	.	.	.	.	.	.	.	.	.	.	.
.	.	.	.	.	12ee\J	.	.	.	.	.	.	.	12ee\J	.	.	.
!LO:TX:a:t=P:problem:mixed beam	!	!	!	!	!	!	!	!	!	!	!	!	!	!	!	!
8E\L	.	.	.	.	12a\L	.	4E\	-tres	4c#X\	-tres	8a\	do-	8cc#\	do-	.	.
.	.	.	.	.	12b\	.	.	.	.	.	.	.	.	.	.	.
8AA/J	.	.	.	.	.	.	.	.	.	.	8a\	-mum	8cc#\	-mum	.	.
.	X X X	.	.	.	12cc#\J	.	.	.	.	.	.	.	.	.	.	.
=58	=58	=58	=58	=58	=58	=58	=58	=58	=58	=58	=58	=58	=58	=58	=58	=58
!	!	!	!	!	!	!	!	!	!	!	!	!	!LO:PB:g=original	!	!	!
4F#X\	6	.	4a/ 4d/	.	4dd\	.	4F#X\	me-	4d\	me-	8a\	Do-	8dd\	Do-	2.ryy	2.ryy
.	.	.	.	.	.	.	.	.	.	.	8a\	-mi-	8dd\	-mi-	.	.
!	!	!	!LO:TUP:b	!	!	!	!	!	!	!	!	!	!	!	!	!
4r	.	.	12d/L	.	12dd\L	.	4F#\	-os	4d\	-os	4a\	-ni,	4dd\	-ni	.	.
.	.	.	12a/	.	12aa\	.	.	.	.	.	.	.	.	.	.	.
.	.	.	12g/J	.	12gg\J	.	.	.	.	.	.	.	.	.	.	.
!	!	!	!LO:TUP:b	!	!	!	!	!	!	!	!	!	!	!	!	!
4r	.	.	12f#X/L	.	12ff#X\L	.	4r	.	4r	.	4r	.	4r	.	.	.
.	.	.	12e/	.	12ee\	.	.	.	.	.	.	.	.	.	.	.
.	.	.	12d/J	.	12dd\J	.	.	.	.	.	.	.	.	.	.	.
=59	=59	=59	=59	=59	=59	=59	=59	=59	=59	=59	=59	=59	=59	=59	=59	=59
*	*	*	*	*	*	*	*	*	*	*	*	*	*2\right	*	*	*
4E\	4_ 3_	.	(8cc#X/L 8e/	.	2.gg\	.	(4e\	et	2.e\	et	2.a\	De-	2.gg\	De-	2.ryy	2.ryy
.	.	.	8ee\J)	.	.	.	.	.	.	.	.	.	.	.	.	.
!	!	!	!LO:TX:a:t=P:problem:mixed beam	!	!	!	!	!	!	!	!	!	!	!	!	!
12C#X/L	.	.	(>8ee\L	.	.	.	4c#X\)	.	.	.	.	.	.	.	.	.
12D\	.	.	.	.	.	.	.	.	.	.	.	.	.	.	.	.
.	.	.	8a/J)	.	.	.	.	.	.	.	.	.	.	.	.	.
12E\J	.	.	.	.	.	.	.	.	.	.	.	.	.	.	.	.
!	!	!	!LO:TX:a:t=P:problem:mixed beam	!	!	!	!	!	!	!	!	!	!	!	!	!
12AA/L	.	.	(>8ee\L	.	.	.	4A\	et	.	.	.	.	.	.	.	.
12BB/	.	.	.	.	.	.	.	.	.	.	.	.	.	.	.	.
.	.	.	8a/J)	.	.	.	.	.	.	.	.	.	.	.	.	.
12C#/J	X X	.	.	.	.	.	.	.	.	.	.	.	.	.	.	.
=60	=60	=60	=60	=60	=60	=60	=60	=60	=60	=60	=60	=60	=60	=60	=60	=60
!LO:LB:g=original	!	!	!LO:LB:g=original	!	!	!	!	!	!	!	!	!	!	!	!	!
!	!	!	!LO:TX:a:t=P:problem:mixed beam	!	!	!	!	!	!	!	!	!	!	!	!	!
4D\	.	.	8dd\L	.	2.ff#\	.	4.d\	pro-	4d\	pro-	2.a\	-i	2.ff#\	-i	2.ryy	2.ryy
.	.	.	8a/J	.	.	.	.	.	.	.	.	.	.	.	.	.
!	!	!	!LO:TX:a:t=P:problem:mixed beam	!	!	!	!	!	!	!	!	!	!	!	!	!
12D\L	.	.	8dd\L	.	.	.	.	.	4d\	-xi-	.	.	.	.	.	.
12E\	.	.	.	.	.	.	.	.	.	.	.	.	.	.	.	.
.	.	.	8a/J	.	.	.	8d\	-xi-	.	.	.	.	.	.	.	.
12F#\J	.	.	.	.	.	.	.	.	.	.	.	.	.	.	.	.
!	!	!	!LO:TX:a:t=P:problem:mixed beam	!	!	!	!	!	!	!	!	!	!	!	!	!
12D\L	.	.	8dd\L	.	.	.	4d\	-mos	4d\	-mos	.	.	.	.	.	.
12E\	.	.	.	.	.	.	.	.	.	.	.	.	.	.	.	.
.	.	.	8a/J	.	.	.	.	.	.	.	.	.	.	.	.	.
12F#\J	.	.	.	.	.	.	.	.	.	.	.	.	.	.	.	.
=61	=61	=61	=61	=61	=61	=61	=61	=61	=61	=61	=61	=61	=61	=61	=61	=61
4E\	4_ 3_	.	(8ee\L	.	2.gg\	.	4e\	me-	2.e\	me-	(2.a\	no-	(2.gg\	noſ-	2.ryy	2.ryy
.	.	.	8a\)	.	.	.	.	.	.	.	.	.	.	.	.	.
!	!	!	!	!	!	!	!LO:TUP:a:problem:klamra łukowa	!	!	!	!	!	!	!	!	!
12c#X\L	.	.	(8ee\	.	.	.	12c#X\L	.	.	.	.	.	.	.	.	.
12d\	.	.	.	.	.	.	12d\	.	.	.	.	.	.	.	.	.
.	.	.	8a\)	.	.	.	.	.	.	.	.	.	.	.	.	.
12e\J	.	.	.	.	.	.	12e\J	.	.	.	.	.	.	.	.	.
*	*	*	*	*	*	*	*Xtuplet	*	*	*	*	*	*	*	*	*
12A\L	.	.	(8ee\	.	.	.	12A\L	.	.	.	.	.	.	.	.	.
12B\	.	.	.	.	.	.	12B\	.	.	.	.	.	.	.	.	.
.	.	.	8a\J)	.	.	.	.	.	.	.	.	.	.	.	.	.
12c#\J	X X	.	.	.	.	.	12c#\J	.	.	.	.	.	.	.	.	.
=62	=62	=62	=62	=62	=62	=62	=62	=62	=62	=62	=62	=62	=62	=62	=62	=62
!	!	!	!	!	!LO:LB:g=original	!	!	!	!	!	!	!	!	!	!	!
4d\	.	.	4a/ 4d/	.	4ff#\	.	(4d\	.	4d\	.	4a\)	.	4ff#\)	.	2.ryy	2.ryy
4D/	.	.	4r	.	(8dd\L	.	4D/)	-os	4d\	-os	4a\	-stri,	4ff#\	-tri	.	.
.	.	.	.	.	8cc#X\	.	.	.	.	.	.	.	.	.	.	.
4r	.	.	4r	.	8dd\	.	4r	.	4r	.	4r	.	4r	.	.	.
.	.	.	.	.	8ee\J)	.	.	.	.	.	.	.	.	.	.	.
=63	=63	=63	=63	=63	=63	=63	=63	=63	=63	=63	=63	=63	=63	=63	=63	=63
!	!	!	!	!	!	!	!	!	!LO:LB:g=original	!	!	!	!	!	!	!
!	!	!	!LO:TX:a:t=P:problem:mixed beam	!	!	!	!	!	!	!	!	!	!	!	!	!
4d\	4_ n3_	.	(>8dd\L	.	2.ffn\	.	4d\	lo-	4d\	lo-	2.g\	quae-	2.ffn\	quae-	2.ryy	2.ryy
.	.	.	8g/J)	.	.	.	.	.	.	.	.	.	.	.	.	.
!	!	!	!LO:TX:a:t=P:problem:mixed beam	!	!	!	!	!	!	!	!	!	!	!	!	!
12B\L	.	.	(>8dd\L	.	.	.	4B\	-que-	4d\	-que-	.	.	.	.	.	.
12c\	.	.	.	.	.	.	.	.	.	.	.	.	.	.	.	.
.	.	.	8g/J)	.	.	.	.	.	.	.	.	.	.	.	.	.
12d\J	.	.	.	.	.	.	.	.	.	.	.	.	.	.	.	.
!	!	!	!LO:TX:a:t=P:problem:mixed beam	!	!	!	!	!	!	!	!	!	!	!	!	!
12G\L	.	.	(>8dd\L	.	.	.	4G\	-bar	4d\	-bar	.	.	.	.	.	.
12A\	.	.	.	.	.	.	.	.	.	.	.	.	.	.	.	.
.	.	.	8g/J)	.	.	.	.	.	.	.	.	.	.	.	.	.
12B\J	X X	.	.	.	.	.	.	.	.	.	.	.	.	.	.	.
=64	=64	=64	=64	=64	=64	=64	=64	=64	=64	=64	=64	=64	=64	=64	=64	=64
!	!	!	!	!	!	!	!	!	!	!	!LO:LB:g=original	!	!	!	!	!
!	!	!	!LO:TX:a:t=P:problem:mixed beam	!	!	!	!	!	!	!	!	!	!	!	!	!
4c\	.	.	8cc\L	.	2.ee\	.	2c\	pa-	2c\	pa-	2g\	-si-	4ee\	-si-	2.ryy	2.ryy
.	.	.	8g/	.	.	.	.	.	.	.	.	.	.	.	.	.
12c\L	.	.	8e/	.	.	.	.	.	.	.	.	.	4ee\	-vi	.	.
12d\	.	.	.	.	.	.	.	.	.	.	.	.	.	.	.	.
.	.	.	8g/J	.	.	.	.	.	.	.	.	.	.	.	.	.
12e\J	.	.	.	.	.	.	.	.	.	.	.	.	.	.	.	.
12c\L	.	.	8cc\L	.	.	.	4e\	-cem	4c\	-cem	4g\	-vi	4r	.	.	.
12d\	.	.	.	.	.	.	.	.	.	.	.	.	.	.	.	.
.	.	.	8g/J	.	.	.	.	.	.	.	.	.	.	.	.	.
12e\J	.	.	.	.	.	.	.	.	.	.	.	.	.	.	.	.
=65	=65	=65	=65	=65	=65	=65	=65	=65	=65	=65	=65	=65	=65	=65	=65	=65
!LO:PB:g=original	!	!	!LO:TX:a:t=P:problem:mixed beam	!	!	!	!	!	!	!	!	!	!	!	!	!
4d\	4_ n3_	.	(>8dd\L	.	2.ffn\	.	4d\	pa-	2d\	pa-	2.g\	quae-	2.ffn\	quae-	2.ryy	2.ryy
.	.	.	8g/J)	.	.	.	.	.	.	.	.	.	.	.	.	.
!	!	!	!LO:TX:a:t=P:problem:mixed beam	!	!	!	!	!	!	!	!	!	!	!	!	!
12B\L	.	.	(>8dd\L	.	.	.	12B\L	.	.	.	.	.	.	.	.	.
12c\	.	.	.	.	.	.	12c\	.	.	.	.	.	.	.	.	.
.	.	.	8g/J)	.	.	.	.	.	.	.	.	.	.	.	.	.
12d\J	.	.	.	.	.	.	12d\J	.	.	.	.	.	.	.	.	.
!	!	!	!LO:TX:a:t=P:problem:mixed beam	!	!	!	!	!	!	!	!	!	!	!	!	!
12G\L	.	.	(>8dd\L	.	.	.	4G\	-cem	4d\	-cem	.	.	.	.	.	.
12A\	.	.	.	.	.	.	.	.	.	.	.	.	.	.	.	.
.	.	.	8g/J)	.	.	.	.	.	.	.	.	.	.	.	.	.
12B\J	X X	.	.	.	.	.	.	.	.	.	.	.	.	.	.	.
=66	=66	=66	=66	=66	=66	=66	=66	=66	=66	=66	=66	=66	=66	=66	=66	=66
!	!	!	!LO:LB:g=original	!	!	!	!	!	!	!	!	!	!LO:LB:g=original	!	!	!
*	*	*	*tremolo	*	*	*	*	*	*	*	*	*	*	*	*	*
4c\	.	.	16g/LL	.	4ee\	.	(8.c\	pa-	4c\	pa-	4g\	-si-	4ee\	-si-	2.ryy	2.ryy
.	.	.	16g/	.	.	.	.	.	.	.	.	.	.	.	.	.
.	.	.	16g/	.	.	.	.	.	.	.	.	.	.	.	.	.
.	.	.	16g/	.	.	.	16c\	.	.	.	.	.	.	.	.	.
4C/	.	.	16g/	.	12ee\L	.	4c\)	-cem,	4c\	-cem	4g\	-vi	4ee\	-vi	.	.
.	.	.	16g/	.	.	.	.	.	.	.	.	.	.	.	.	.
.	.	.	.	.	12ff#X\	.	.	.	.	.	.	.	.	.	.	.
.	.	.	16g/	.	.	.	.	.	.	.	.	.	.	.	.	.
.	.	.	.	.	12gg\J	.	.	.	.	.	.	.	.	.	.	.
.	.	.	16g/	.	.	.	.	.	.	.	.	.	.	.	.	.
4r	.	.	16g/	.	12ee\L	.	4r	.	4r	.	4r	.	4r	.	.	.
.	.	.	16g/	.	.	.	.	.	.	.	.	.	.	.	.	.
.	.	.	.	.	12ff#\	.	.	.	.	.	.	.	.	.	.	.
.	.	.	16g/	.	.	.	.	.	.	.	.	.	.	.	.	.
.	.	.	.	.	12gg\J	.	.	.	.	.	.	.	.	.	.	.
.	.	.	16g/JJ	.	.	.	.	.	.	.	.	.	.	.	.	.
=67	=67	=67	=67	=67	=67	=67	=67	=67	=67	=67	=67	=67	=67	=67	=67	=67
8c\L	4+r_ 2_	.	16a/LL 16d/	.	4ff#\	.	2.c\	de	2.d\	de	4a\	bo-	4ff#X\	bo-	2.ryy	2.ryy
.	.	.	16a/ 16d/	.	.	.	.	.	.	.	.	.	.	.	.	.
8c\	.	.	16a/ 16d/	.	.	.	.	.	.	.	.	.	.	.	.	.
.	.	.	16a/ 16d/	.	.	.	.	.	.	.	.	.	.	.	.	.
8c\	.	.	16a/ 16d/	.	12ff#\L	.	.	.	.	.	4a\	-na	4ff#\	-na	.	.
.	.	.	16a/ 16d/	.	.	.	.	.	.	.	.	.	.	.	.	.
.	.	.	.	.	12gg\	.	.	.	.	.	.	.	.	.	.	.
8c\	.	.	16a/ 16d/	.	.	.	.	.	.	.	.	.	.	.	.	.
.	.	.	.	.	12aa\J	.	.	.	.	.	.	.	.	.	.	.
.	.	.	16a/ 16d/	.	.	.	.	.	.	.	.	.	.	.	.	.
8c\	.	.	16a/ 16d/	.	12ff#\L	.	.	.	.	.	4r	.	4r	.	.	.
.	.	.	16a/ 16d/	.	.	.	.	.	.	.	.	.	.	.	.	.
.	.	.	.	.	12gg\	.	.	.	.	.	.	.	.	.	.	.
8c\J	.	.	16a/ 16d/	.	.	.	.	.	.	.	.	.	.	.	.	.
.	.	.	.	.	12aa\J	.	.	.	.	.	.	.	.	.	.	.
.	.	.	16a/JJ 16d/	.	.	.	.	.	.	.	.	.	.	.	.	.
=68	=68	=68	=68	=68	=68	=68	=68	=68	=68	=68	=68	=68	=68	=68	=68	=68
8B\L	6 x	.	16dd/LL 16d/	.	4gg\	.	(4B\	te	2.d\	te	(4b\	bo-	(4gg\	bo-	2.ryy	2.ryy
.	.	.	16dd/ 16d/	.	.	.	.	.	.	.	.	.	.	.	.	.
8B\	.	.	16dd/ 16d/	.	.	.	.	.	.	.	.	.	.	.	.	.
.	.	.	16dd/ 16d/	.	.	.	.	.	.	.	.	.	.	.	.	.
8F#X\	6 5	.	16dd/ 16d/	.	4ccc\	.	4F#\)	.	.	.	4a\)	-na	4dd\)	.	.	.
.	.	.	16dd/ 16d/	.	.	.	.	.	.	.	.	.	.	.	.	.
8F#\	.	.	16dd/ 16d/	.	.	.	.	.	.	.	.	.	.	.	.	.
.	.	.	16dd/ 16d/	.	.	.	.	.	.	.	.	.	.	.	.	.
8G\	.	.	16dd/ 16d/	.	8bb\L	.	4G\`	de	.	.	4g\	.	4dd\	-na	.	.
.	.	.	16dd/ 16d/	.	.	.	.	.	.	.	.	.	.	.	.	.
8G\J	.	.	16dd/ 16d/	.	8ccc\J	.	.	.	.	.	.	.	.	.	.	.
.	.	.	16dd/JJ 16d/	.	.	.	.	.	.	.	.	.	.	.	.	.
*	*	*	*Xtremolo	*	*	*	*	*	*	*	*	*	*	*	*	*
=69	=69	=69	=69	=69	=69	=69	=69	=69	=69	=69	=69	=69	=69	=69	=69	=69
!LO:TX:a:t=P:problem:mixed beam	!	!	!	!	!	!	!	!	!	!	!	!	!	!	!	!
8d\L	6 4	.	4gg\	.	4bb\	.	(4d\	te.	4B\	de	4g\	ti-	4dd\	ti-	2.ryy	2.ryy
8d\	.	.	.	.	.	.	.	.	.	.	.	.	.	.	.	.
8d\	5 3	.	4ff#X\	.	4aa\	.	4D/)	.	4A\	te	4f#\	-bi	4dd\	-bi	.	.
8D/J	.	.	.	.	.	.	.	.	.	.	.	.	.	.	.	.
*16\right	*	*	*	*	*	*	*	*	*	*	*	*	*	*	*	*
16d\`LL	.	.	(16ff#\LL	.	4r	.	4r	.	4r	.	4r	.	4r	.	.	.
16c\`	.	.	16ee\	.	.	.	.	.	.	.	.	.	.	.	.	.
16B\`	.	.	16dd\)	.	.	.	.	.	.	.	.	.	.	.	.	.
16A\`JJ	.	.	16cc\JJ	.	.	.	.	.	.	.	.	.	.	.	.	.
=70	=70	=70	=70	=70	=70	=70	=70	=70	=70	=70	=70	=70	=70	=70	=70	=70
!	!	!	!	!	!	!	!LO:LB:g=original	!	!	!	!	!	!	!	!	!
!	!	!	!	!	!	!	!LO:TX:a:t=4	!	!LO:TX:a:t=8	!	!LO:TX:a:i:t=Solo	!	!LO:TX:a:t=17	!	!	!
!	!	!LO:DY:b:t=piano.	!	!	!	!LO:DY:b:t=piano	!LO:N:vis=00	!	!LO:N:vis=00	!	!	!	!	!	!	!
4G\	.	p	4b/ 4d/	.	4gg\	p	0.r	.	0.r	.	4g\	Glo-	2.r	.	2.ryy	2.ryy
!	!	!	!	!LO:DY:b	!	!	!	!	!	!	!	!	!	!	!	!
4B\	.	.	8b\L	p	(8gg\L	.	.	.	.	.	8g\L	-ri-	.	.	.	.
.	.	.	8a/	.	8ff#\	.	.	.	.	.	8f#\J	.	.	.	.	.
4d\	.	.	8b\	.	8gg\	.	.	.	.	.	8g\L	-a	.	.	.	.
.	.	.	8cc\J	.	8aa\J)	.	.	.	.	.	8a\J	.	.	.	.	.
=71	=71	=71	=71	=71	=71	=71	=71	=71	=71	=71	=71	=71	=71	=71	=71	=71
!	!	!	!	!	!LO:LB:g=original	!	!	!	!	!	!	!	!	!	!	!
*tremolo	*	*	*	*	*	*	*	*	*	*	*	*	*	*	*	*
8G\L	.	.	4b\	.	4gg\	.	.	.	.	.	(4g\	Pa-	2.r	.	2.ryy	2.ryy
8G\	.	.	.	.	.	.	.	.	.	.	.	.	.	.	.	.
8G\	.	.	4dd\	.	4bb\	.	.	.	.	.	4b\)	.	.	.	.	.
8G\	.	.	.	.	.	.	.	.	.	.	.	.	.	.	.	.
8G\	.	.	4b\	.	4gg\	.	.	.	.	.	4g\	-tri	.	.	.	.
8G\J	.	.	.	.	.	.	.	.	.	.	.	.	.	.	.	.
=72	=72	=72	=72	=72	=72	=72	=72	=72	=72	=72	=72	=72	=72	=72	=72	=72
!	!	!	!	!	!	!	!	!	!	!	!LO:LB:g=original	!	!	!	!	!
8D\L	.	.	(8cc\L	.	4aa\	.	.	.	.	.	4a\	et	2.r	.	2.ryy	2.ryy
8D\	.	.	8dd\)	.	.	.	.	.	.	.	.	.	.	.	.	.
8D\	.	.	(8b\	.	4gg\	.	.	.	.	.	4g\	fi-	.	.	.	.
8D\	.	.	8dd\J)	.	.	.	.	.	.	.	.	.	.	.	.	.
8D\	.	.	8a\L	.	4ff#\	.	.	.	.	.	4f#\	-li-	.	.	.	.
8D\J	.	.	8cc\J	.	.	.	.	.	.	.	.	.	.	.	.	.
=73	=73	=73	=73	=73	=73	=73	=73	=73	=73	=73	=73	=73	=73	=73	=73	=73
8r	.	.	(8b\L	.	4gg\	.	.	.	.	.	4g\	-o.	2.r	.	2.ryy	2.ryy
8G\L	.	.	8dd\)	.	.	.	.	.	.	.	.	.	.	.	.	.
8D\	.	.	(8b\	.	4r	.	.	.	.	.	4r	.	.	.	.	.
8BB\J	.	.	8dd\)	.	.	.	.	.	.	.	.	.	.	.	.	.
4GG/	.	.	(8b\	.	8gg\L	.	.	.	.	.	4r	.	.	.	.	.
.	.	.	8dd\J)	.	8aa\J	.	.	.	.	.	.	.	.	.	.	.
=74	=74	=74	=74	=74	=74	=74	=74	=74	=74	=74	=74	=74	=74	=74	=74	=74
!	!	!	!LO:LB:g=original	!	!	!	!LO:TX:a:i:t=Solo.	!	!LO:N:vis=00	!	!	!	!	!	!	!
8G\L	.	.	4gg\	.	4bb\	.	4G\	Glo-	0.r	.	4b\	Glo-	2.r	.	2.ryy	2.ryy
8G\	.	.	.	.	.	.	.	.	.	.	.	.	.	.	.	.
8G\	.	.	8gg\L	.	(8bb\L	.	8G\L	-ri-	.	.	8b\L	-ri-	.	.	.	.
8G\	.	.	8ff#\	.	8aa\	.	8F#\J	.	.	.	8a\J	.	.	.	.	.
8G\	.	.	8gg\	.	8bb\	.	8G\L	-a	.	.	8b\L	-a	.	.	.	.
8G\J	.	.	8aa\J	.	8ccc\J)	.	8A\J	.	.	.	8cc\J	.	.	.	.	.
=75	=75	=75	=75	=75	=75	=75	=75	=75	=75	=75	=75	=75	=75	=75	=75	=75
8G\L	.	.	4gg\	.	4bb\	.	4G\	Pa-	.	.	(4b\	Pa-	2.r	.	2.ryy	2.ryy
8G\	.	.	.	.	.	.	.	.	.	.	.	.	.	.	.	.
8G\	.	.	4bb\	.	4ddd\	.	4B\	-tri	.	.	4dd\)	.	.	.	.	.
8G\	.	.	.	.	.	.	.	.	.	.	.	.	.	.	.	.
8G\	.	.	4gg\	.	4bb\	.	4G\	et	.	.	4b\	-tri	.	.	.	.
8G\J	.	.	.	.	.	.	.	.	.	.	.	.	.	.	.	.
=76	=76	=76	=76	=76	=76	=76	=76	=76	=76	=76	=76	=76	=76	=76	=76	=76
8d\L	7 5	.	4aa\	.	4ccc\	.	(4A\	Fi-	.	.	4cc\	et	2.r	.	2.ryy	2.ryy
8d\	.	.	.	.	.	.	.	.	.	.	.	.	.	.	.	.
8d\	6 4	.	4gg\	.	4bb\	.	4G\)	.	.	.	4b\	fi-	.	.	.	.
8d\	.	.	.	.	.	.	.	.	.	.	.	.	.	.	.	.
8d\	5 3	.	4ff#\	.	4aa\	.	4F#\	-li-	.	.	4a\	-li-	.	.	.	.
8d\J	.	.	.	.	.	.	.	.	.	.	.	.	.	.	.	.
*Xtremolo	*	*	*	*	*	*	*	*	*	*	*	*	*	*	*	*
=77	=77	=77	=77	=77	=77	=77	=77	=77	=77	=77	=77	=77	=77	=77	=77	=77
8r	.	.	(8gg\L	.	4bb\	.	4G\	-o	.	.	4b\	-o.	2.r	.	2.ryy	2.ryy
8G\L	.	.	8dd\)	.	.	.	.	.	.	.	.	.	.	.	.	.
8D\	.	.	(8b\	.	4r	.	4r	.	.	.	4r	.	.	.	.	.
8BB\J	.	.	8dd\)	.	.	.	.	.	.	.	.	.	.	.	.	.
4GG/	.	.	8gg\	.	8bb\L	.	4r	.	.	.	4r	.	.	.	.	.
.	.	.	8aa\J	.	8ccc\J	.	.	.	.	.	.	.	.	.	.	.
=78	=78	=78	=78	=78	=78	=78	=78	=78	=78	=78	=78	=78	=78	=78	=78	=78
!	!	!	!	!	!	!	!	!	!LO:TX:a:i:t=Solo	!	!LO:TX:a:t=9.	!	!	!	!	!
!	!	!	!	!	!	!	!	!	!	!	!LO:N:vis=00	!	!	!	!	!
8r	.	.	4bb\	.	4ddd\	.	4B\	et	4d\	et	0.r	.	2.r	.	2.ryy	2.ryy
8G\L	.	.	.	.	.	.	.	.	.	.	.	.	.	.	.	.
8G\	.	.	(8gg\L	.	(8bb\L	.	8G\L	spi-	8B\L	.	.	.	.	.	.	.
8G\	.	.	8aa\	.	8ccc\	.	8A\J	.	8c\J	.	.	.	.	.	.	.
8G\	.	.	8bb\)	.	8ddd\	.	8B\L	-ri-	8d\L	spi-	.	.	.	.	.	.
8G\J	.	.	8gg\J	.	8bb\J)	.	8G\J	.	8B\J	.	.	.	.	.	.	.
=79	=79	=79	=79	=79	=79	=79	=79	=79	=79	=79	=79	=79	=79	=79	=79	=79
!	!	!	!	!	!	!	!	!	!LO:LB:g=original	!	!	!	!	!	!	!
8r	.	.	(4ff#\	.	(4aa\	.	(4F#\	-tu-	4A\	-ri-	.	.	2.r	.	2.ryy	2.ryy
8d\L	.	.	.	.	.	.	.	.	.	.	.	.	.	.	.	.
8d\	6 4	.	4gg\)	.	4bb\	.	4G\	.	4B\	-tu-	.	.	.	.	.	.
8d\	.	.	.	.	.	.	.	.	.	.	.	.	.	.	.	.
8d\	7 5	.	4aa\	.	4ccc\)	.	4A\)	-i	4c\	-i	.	.	.	.	.	.
8d\J	.	.	.	.	.	.	.	.	.	.	.	.	.	.	.	.
=80	=80	=80	=80	=80	=80	=80	=80	=80	=80	=80	=80	=80	=80	=80	=80	=80
!LO:LB:g=original	!	!	!	!	!LO:LB:g=original	!	!LO:LB:g=original	!	!	!	!	!	!	!	!	!
8r	.	.	4gg\	.	4bb\	.	4G\	spi-	4B\	Spi-	.	.	2.r	.	2.ryy	2.ryy
!LO:TX:a:t=P:problem:mixed beam	!	!	!	!	!	!	!	!	!	!	!	!	!	!	!	!
8G\L	.	.	.	.	.	.	.	.	.	.	.	.	.	.	.	.
8GG/	.	.	(8bb\L	.	(8ddd\L	.	8B\L	-ri-	8d\L	-ri-	.	.	.	.	.	.
8G\	.	.	8gg\)	.	8bb\)	.	8G\J	.	8B\J	.	.	.	.	.	.	.
!	!	!	!	!	!	!	!	!	!LO:SIC:l:s=-tu-:v	!	!	!	!	!	!	!
8GG/	.	.	(8bb\	.	(8ddd\	.	8B\	-tu-	8d\	-lu-	.	.	.	.	.	.
8G\J	.	.	8gg\J)	.	8bb\J)	.	8G\	-i	8B\	-i	.	.	.	.	.	.
=81	=81	=81	=81	=81	=81	=81	=81	=81	=81	=81	=81	=81	=81	=81	=81	=81
!	!	!	!LO:LB:g=original	!	!	!	!	!	!	!	!	!	!	!	!	!
8r	.	.	4ff#\	.	(4aa\	.	(4F#\	San-	(4A\	San-	.	.	2.r	.	2.ryy	2.ryy
8d\L	.	.	.	.	.	.	.	.	.	.	.	.	.	.	.	.
8D\	.	.	4gg\	.	4bb\	.	4G\	.	4B\)	.	.	.	.	.	.	.
8d\	.	.	.	.	.	.	.	.	.	.	.	.	.	.	.	.
8D\	.	.	4aa\	.	4ccc\)	.	4A\)	-cto	4c\	-cto	.	.	.	.	.	.
8d\J	.	.	.	.	.	.	.	.	.	.	.	.	.	.	.	.
=82	=82	=82	=82	=82	=82	=82	=82	=82	=82	=82	=82	=82	=82	=82	=82	=82
!	!	!	!	!	!	!	!	!	!	!	!LO:N:vis=00	!	!	!	!	!
2G\	.	.	4gg\	.	4bb\	.	4G\	et	4B\	et	0.r	.	2.r	.	2.ryy	2.ryy
*	*	*	*Xtuplet	*	*	*	*	*	*tuplet	*	*	*	*	*	*	*
!	!	!	!	!	!	!	!	!	!LO:TUP:b	!	!	!	!	!	!	!
.	.	.	12ff#\L	.	12aa\L	.	12F#\L	Spi-	12A/L	.	.	.	.	.	.	.
.	.	.	12gg\	.	12bb\	.	12G\	.	12B/	.	.	.	.	.	.	.
.	.	.	12ff#\J	.	12aa\J	.	12F#\J	.	12A/J	.	.	.	.	.	.	.
*	*	*	*	*	*	*	*	*	*Xtuplet	*	*	*	*	*	*	*
4r	.	.	12ee\L	.	12gg\L	.	12E\L	.	12G/L	spi-	.	.	.	.	.	.
.	.	.	12ff#\	.	12aa\	.	12F#\	.	12A\	.	.	.	.	.	.	.
.	.	.	12ee\J	.	12gg\J	.	12E\J	.	12G/J	.	.	.	.	.	.	.
=83	=83	=83	=83	=83	=83	=83	=83	=83	=83	=83	=83	=83	=83	=83	=83	=83
4G\	7 5	.	12dd\L	.	12ff#\L	.	4D/	-ri-	4F#/	-ri-	.	.	2.r	.	2.ryy	2.ryy
.	.	.	12ee\	.	12gg\	.	.	.	.	.	.	.	.	.	.	.
.	.	.	12dd\J	.	12ff#\J	.	.	.	.	.	.	.	.	.	.	.
4G\	6 4	.	12cc\L	.	12ee\L	.	4C/	-tu-	4E/	-tu-	.	.	.	.	.	.
.	.	.	12dd\	.	12ff#\	.	.	.	.	.	.	.	.	.	.	.
.	.	.	12cc\J	.	12ee\J	.	.	.	.	.	.	.	.	.	.	.
!LO:TUP:problem:klamra łukowa	!	!	!	!	!	!	!	!	!	!	!	!	!	!	!	!
12G\L	5	.	4b\	.	4dd\	.	4BB/	-i	4D/	-i	.	.	.	.	.	.
12A\	3_	.	.	.	.	.	.	.	.	.	.	.	.	.	.	.
12B\J	X	.	.	.	.	.	.	.	.	.	.	.	.	.	.	.
=84	=84	=84	=84	=84	=84	=84	=84	=84	=84	=84	=84	=84	=84	=84	=84	=84
2c\	.	.	4g/	.	4ee\	.	2C/	San-	4E/	san-	.	.	2.r	.	2.ryy	2.ryy
.	.	.	4g/	.	12ee\L	.	.	.	12E/L	.	.	.	.	.	.	.
.	.	.	.	.	12ff#\	.	.	.	12F#/	.	.	.	.	.	.	.
.	.	.	.	.	12gg\J	.	.	.	12G/J	.	.	.	.	.	.	.
4d\	.	.	12a/L	.	12ff#\L	.	4D/	-cto	12F#/L	-cto	.	.	.	.	.	.
.	.	.	12b\	.	12gg\	.	.	.	12G/	.	.	.	.	.	.	.
.	.	.	12cc\J	.	12aa\J	.	.	.	12A\J	.	.	.	.	.	.	.
=85	=85	=85	=85	=85	=85	=85	=85	=85	=85	=85	=85	=85	=85	=85	=85	=85
!	!	!	!	!	!	!	!LO:LB:g=original	!	!LO:LB:g=original	!	!	!	!	!	!	!
!LO:TX:a:t=P:problem:znak repetycji na początku i na końcu taktu	!	!	!	!	!	!	!	!	!	!	!	!	!	!	!	!
4G\	.	.	4b/ 4d/	.	4gg\	.	4G\	S(an)-	4G/	san-	.	.	2.r	.	2.ryy	2.ryy
4GG/	.	.	4b/ 4d/	.	(8gg\L	.	4GG/	-cto	4G/	-cto	.	.	.	.	.	.
.	.	.	.	.	8ff#\)	.	.	.	.	.	.	.	.	.	.	.
4r	.	.	4r	.	(8gg\	.	4r	.	4r	.	.	.	.	.	.	.
.	.	.	.	.	8aa\J)	.	.	.	.	.	.	.	.	.	.	.
=86	=86	=86	=86	=86	=86	=86	=86	=86	=86	=86	=86	=86	=86	=86	=86	=86
!LO:TX:a:t=P:problem:takt zapisany repetycją	!	!	!	!	!	!	!LO:TX:a:t=1.	!	!	!	!	!	!	!	!	!
4G\	.	.	4gg\	.	4bb\	.	2.r	.	2.r	.	2.r	.	2.r	.	2.ryy	2.ryy
4GG/	.	.	(8gg\L	.	(8bb\L	.	.	.	.	.	.	.	.	.	.	.
.	.	.	8ff#\	.	8aa\)	.	.	.	.	.	.	.	.	.	.	.
4r	.	.	8gg\)	.	(8bb\	.	.	.	.	.	.	.	.	.	.	.
.	.	.	8aa\J	.	8ccc\J)	.	.	.	.	.	.	.	.	.	.	.
=87	=87	=87	=87	=87	=87	=87	=87	=87	=87	=87	=87	=87	=87	=87	=87	=87
!	!	!	!	!	!LO:LB:g=original	!	!	!	!	!	!LO:PB:g=original	!	!	!	!	!
*tremolo	*	*	*	*	*	*	*	*	*	*	*	*	*	*	*	*
!LO:TX:a:i:t=Tutti	!	!	!	!LO:DY:b	!LO:TX:a:i:t=Tutti	!	!	!	!LO:TX:a:i:t=Tutti	!	!	!	!LO:TX:a:i:t=Tutti	!	!	!
8G\L	.	.	4bb\	f	4ddd\	.	2G\	Si-	2d\	si-	(4b\	si-	4dd\	Si-	2.ryy	2.ryy
8G\	.	.	.	.	.	.	.	.	.	.	.	.	.	.	.	.
8G\	.	.	8gg\L	.	8bb\L	.	.	.	.	.	8g\L)	.	8b\L	.	.	.
8G\	.	.	8aa\	.	8ccc\	.	.	.	.	.	(8a\J	-cut	8cc\J	.	.	.
8G\	.	.	8bb\	.	8ddd\	.	4G\	-cut	4d\	-cut	8b\L	.	8dd\L	-cut	.	.
8G\J	.	.	8gg\J	.	8bb\J	.	.	.	.	.	8g\J)	.	8b\J	.	.	.
=88	=88	=88	=88	=88	=88	=88	=88	=88	=88	=88	=88	=88	=88	=88	=88	=88
!	!	!	!LO:LB:g=original	!	!	!	!	!	!	!	!	!	!	!	!	!
8d\L	5 3	.	(4ff#\	.	4aa\	.	2d\	e-	2d\	e-	(4f#\	e-	4a\	e-	2.ryy	2.ryy
8d\	.	.	.	.	.	.	.	.	.	.	.	.	.	.	.	.
8d\	6 4	.	4gg\)	.	4bb\	.	.	.	.	.	4g\	.	4b\	.	.	.
8d\	.	.	.	.	.	.	.	.	.	.	.	.	.	.	.	.
8d\	7 5	.	4aa\	.	4ccc\	.	4D/	-rat	4d\	-rat	4a\)	-rat	4cc\	-rat	.	.
8d\J	.	.	.	.	.	.	.	.	.	.	.	.	.	.	.	.
=89	=89	=89	=89	=89	=89	=89	=89	=89	=89	=89	=89	=89	=89	=89	=89	=89
!	!	!	!	!	!	!	!	!	!	!	!	!	!LO:LB:g=original	!	!	!
8G\L	.	.	4gg\	.	4bb\	.	2G\	in	2d\	e-	[4g\	in	4b\	in	2.ryy	2.ryy
8G\	.	.	.	.	.	.	.	.	.	.	.	.	.	.	.	.
8G\	.	.	(8gg\L	.	8bb\L	.	.	.	.	.	8g\L]	.	(8b\L	.	.	.
8G\	.	.	8aa\	.	8ccc\	.	.	.	.	.	(8a\J	prin-	8cc\J)	.	.	.
8G\	.	.	8bb\	.	8ddd\	.	4G\	prin-	4d\	-rat	8b\L	.	8dd\L	prin-	.	.
8G\J	.	.	8gg\J)	.	8bb\J	.	.	.	.	.	8g\J)	.	8b\J	.	.	.
*Xtremolo	*	*	*	*	*	*	*	*	*	*	*	*	*	*	*	*
=90	=90	=90	=90	=90	=90	=90	=90	=90	=90	=90	=90	=90	=90	=90	=90	=90
8d\L	.	.	4ff#\	.	4aa\	.	4.d\	-ci-	4d\	in	4f#\	-ci-	4a\	-ci-	2.ryy	2.ryy
8d\	.	.	.	.	.	.	.	.	.	.	.	.	.	.	.	.
8d\	6 4	.	4gg\	.	4bb\	.	.	.	4d\	.	4g\	-pi-	4b\	-pi-	.	.
8d\J	.	.	.	.	.	.	8D/	-pi-	.	.	.	.	.	.	.	.
*tuplet	*	*	*	*	*	*	*	*	*	*	*	*	*	*	*	*
!LO:TUP:a:problem:klamra łukowa	!	!	!	!	!	!	!	!	!	!	!	!	!	!	!	!
12D\L	7 5	.	4aa\	.	4ccc\	.	4D/	-o	4d\	prin-	4a\	-o	4cc\	-o	.	.
12E\	.	.	.	.	.	.	.	.	.	.	.	.	.	.	.	.
12F#\J	.	.	.	.	.	.	.	.	.	.	.	.	.	.	.	.
=91	=91	=91	=91	=91	=91	=91	=91	=91	=91	=91	=91	=91	=91	=91	=91	=91
2G\	.	.	4gg\	.	12bb\L	.	8G\	et	4G/	-ci-	4g\	et	8b\	et	2.ryy	2.ryy
.	.	.	.	.	12ccc\	.	.	.	.	.	.	.	.	.	.	.
.	.	.	.	.	.	.	8G\	in	.	.	.	.	8b\	in	.	.
.	.	.	.	.	12bb\J	.	.	.	.	.	.	.	.	.	.	.
!	!	!	!	!	!	!	!LO:LB:g=original	!	!	!	!	!	!	!	!	!
*	*	*	*tuplet	*	*	*	*	*	*	*	*	*	*	*	*	*
.	.	.	12ff#\L	.	12aa\L	.	16F#\	sae-	4G/	-pi-	4g\	nunc	16a\	sae-	.	.
.	.	.	.	.	.	.	16F#\	-cu-	.	.	.	.	16a\	-cu-	.	.
.	.	.	12gg\	.	12bb\	.	.	.	.	.	.	.	.	.	.	.
.	.	.	.	.	.	.	8F#\'	-la	.	.	.	.	8a\	-la	.	.
.	.	.	12ff#\J	.	12aa\J	.	.	.	.	.	.	.	.	.	.	.
4G\	8 6	.	12ee\L	.	12gg\L	.	8E\	sae-	4G/	-o	4g\	et	8g/	sae-	.	.
.	.	.	12ff#\	.	12aa\	.	.	.	.	.	.	.	.	.	.	.
.	.	.	.	.	.	.	8E\	-cu-	.	.	.	.	8g/	-cu-	.	.
.	.	.	12ee\J	.	12gg\J	.	.	.	.	.	.	.	.	.	.	.
=92	=92	=92	=92	=92	=92	=92	=92	=92	=92	=92	=92	=92	=92	=92	=92	=92
2G\	7 5	.	12dd\L	.	12ff#\L	.	(4d\	-lo-	2G/	et	2g\	sem-	4ff#\	-lo-	2.ryy	2.ryy
.	.	.	12ee\	.	12gg\	.	.	.	.	.	.	.	.	.	.	.
.	6 4	.	12dd\J	.	12ff#\J	.	.	.	.	.	.	.	.	.	.	.
.	.	.	12cc\L	.	12ee\L	.	4c\)	.	.	.	.	.	4ee\	.	.	.
.	.	.	12dd\	.	12ff#\	.	.	.	.	.	.	.	.	.	.	.
.	.	.	12cc\J	.	12ee\J	.	.	.	.	.	.	.	.	.	.	.
!	!	!	!	!	!	!	!	!	!LO:N:vis=4	!	!	!	!	!	!	!
4G\	5 3	.	4b\	.	4dd\	.	4B\	-rum	8G/	nunc	4g\	-per	4dd\	-rum	.	.
.	.	.	.	.	.	.	.	.	8G/	et	.	.	.	.	.	.
=93	=93	=93	=93	=93	=93	=93	=93	=93	=93	=93	=93	=93	=93	=93	=93	=93
!	!	!	!	!	!LO:LB:g=original	!	!	!	!	!	!LO:LB:g=original	!	!LO:LB:g=original	!	!	!
*tremolo	*	*	*	*	*	*	*	*	*	*	*	*	*	*	*	*
!LO:TX:a:t=P:problem:złe wyświetlanie wartości rytmicznej tremolo	!	!	!	!	!	!	!	!	!	!	!	!	!	!	!	!
!LO:N:TREM:vis=2.	!	!	!	!	!	!	!	!	!	!	!	!	!	!	!	!
8C/L	.	.	4g/	.	4ee\	.	2c\	A-	4c\	Sem-	4g\	a-	2ee\	A-	2.ryy	2.ryy
8C/	.	.	.	.	.	.	.	.	.	.	.	.	.	.	.	.
8C/	.	.	4g/	.	12ee\L	.	.	.	4c\	-per	4g\	-men	.	.	.	.
.	.	.	.	.	12ff#\	.	.	.	.	.	.	.	.	.	.	.
8C/J	.	.	.	.	.	.	.	.	.	.	.	.	.	.	.	.
.	.	.	.	.	12gg\J	.	.	.	.	.	.	.	.	.	.	.
*Xtremolo	*	*	*	*	*	*	*	*	*tuplet	*	*12\right	*	*	*	*	*
!	!	!	!LO:TUP:b	!	!	!	!	!	!	!	!	!	!	!	!	!
8D/L	.	.	12a/L	.	12ff#\L	.	4d\	-men	12A\L	A-	12a\L	a-	4ff#\	-men	.	.
.	.	.	12b\	.	12gg\	.	.	.	12B\	.	12b\	.	.	.	.	.
8D/J	.	.	.	.	.	.	.	.	.	.	.	.	.	.	.	.
.	.	.	12cc\J	.	12aa\J	.	.	.	12c\J	.	12cc\J	.	.	.	.	.
=94	=94	=94	=94	=94	=94	=94	=94	=94	=94	=94	=94	=94	=94	=94	=94	=94
!LO:TX:a:t=P:problem:mixed beam	!	!	!	!	!	!	!	!	!	!	!	!	!	!	!	!
8GG/L	.	.	(8b/L 8d/	.	4gg\	.	4G\	a-	4d\	-men	4b\	-men	2gg\	A-	2.ryy	2.ryy
8G\	.	.	8dd\J)	.	.	.	.	.	.	.	.	.	.	.	.	.
8D\	.	.	(8b/L 8d/	.	4gg\	.	4G\	-men	2d\	A-	2b\	a-	.	.	.	.
8G\J	.	.	8dd\J)	.	.	.	.	.	.	.	.	.	.	.	.	.
8BB\L	.	.	8b/L 8d/	.	4gg\	.	4D/	a-	.	.	.	.	4gg\	.	.	.
8D\J	.	.	8dd\J	.	.	.	.	.	.	.	.	.	.	.	.	.
=95	=95	=95	=95	=95	=95	=95	=95	=95	=95	=95	=95	=95	=95	=95	=95	=95
2.GG/	.	.	2.b/ 2.d/	.	2.gg\ 2.b\ 2.d\	.	2.G\	-men.	2d\	-men.	2b\	-men.	2gg\	-men.	2.ryy	2.ryy
!	!	!	!	!	!	!	!LO:TX:b:i:t=Votti subito.	!	!	!	!	!	!	!	!	!
.	.	.	.	.	.	.	.	.	4r	.	4r	.	4r	.	.	.
==	==	==	==	==	==	==	==	==	==	==	==	==	==	==	==	==
*-	*-	*-	*-	*-	*-	*-	*-	*-	*-	*-	*-	*-	*-	*-	*-	*-
!!!system-decoration: [g1][g2][g3]s9
!!!RDF**kern: > = above
!!!RDF**kern: < = below
!!!RDF**dynam: p = "pia"
!!!RDF**dynam: f = "for"
!!!ENC: Marta Lawrence
!!!END: 2020-06-23
!!!ENC: Andrzej Kubiczek
!!!END: 2020-02-22
